; generated by Slic3r 1.2.4 on 2015-01-05 at 22:19:16

; external perimeters extrusion width = 0.30mm
; perimeters extrusion width = 0.40mm
; infill extrusion width = 0.40mm
; solid infill extrusion width = 0.40mm
; top infill extrusion width = 0.40mm
; support material extrusion width = 0.30mm

M190 S45 ; set bed temperature
M104 S220 ; set temperature
G28 ; home all axes
G92 E0;
G1 E1 F1200 ;
G92 E0 ;
M109 S220 ; wait for temperature to be reached
G21 ; set units to millimeters
G90 ; use absolute coordinates
M82 ; use absolute distances for extrusion
G92 E0
G1 E-0.70000 F600.00000
G92 E0
G1 Z0.200 F15300.000
G1 X81.219 Y72.077 F15300.000
G1 E0.71000 F600.00000
G1 X82.920 Y70.249 E0.78596 F900.000
G1 X83.375 Y69.807 E0.80527
G1 X85.249 Y68.158 E0.88123
G1 X85.746 Y67.763 E0.90053
G1 X87.776 Y66.309 E0.97650
G1 X88.310 Y65.966 E0.99580
G1 X90.475 Y64.721 E1.07176
G1 X91.040 Y64.433 E1.09107
G1 X93.261 Y63.436 E1.16513
G1 X93.909 Y63.180 E1.18633
G1 X96.278 Y62.391 E1.26230
G1 X96.889 Y62.220 E1.28160
G1 X99.325 Y61.671 E1.35757
G1 X100.147 Y61.541 E1.38287
G1 X100.885 Y61.500 E1.40535
G1 X109.115 Y61.500 E1.65574
G1 X109.692 Y61.527 E1.67329
G1 X110.675 Y61.671 E1.70352 F900.000
G1 X113.111 Y62.220 E1.77948
G1 X113.722 Y62.391 E1.79879
G1 X116.091 Y63.180 E1.87475
G1 X116.682 Y63.411 E1.89405
G1 X118.960 Y64.433 E1.97002
G1 X119.525 Y64.721 E1.98932
G1 X121.690 Y65.966 E2.06529
G1 X122.224 Y66.309 E2.08459
G1 X124.203 Y67.726 E2.15865
G1 X124.751 Y68.158 E2.17985
G1 X126.626 Y69.807 E2.25582
G1 X127.080 Y70.249 E2.27512
G1 X128.781 Y72.077 E2.35108
G1 X129.190 Y72.563 E2.37039
G1 X130.700 Y74.551 E2.44635
G1 X131.058 Y75.075 E2.46566
G1 X132.362 Y77.205 E2.54162
G1 X132.666 Y77.762 E2.56092
G1 X133.752 Y80.010 E2.63689
G1 X133.998 Y80.595 E2.65619
G1 X134.854 Y82.941 E2.73215
G1 X135.041 Y83.547 E2.75146
G1 X135.659 Y85.967 E2.82742
G1 X135.785 Y86.588 E2.84672
G1 X136.158 Y89.058 E2.92269
G1 X136.221 Y89.689 E2.94199
G1 X136.346 Y92.183 E3.01796
G1 X136.346 Y92.817 E3.03726
G1 X136.221 Y95.311 E3.11322
G1 X136.158 Y95.943 E3.13253
G1 X135.785 Y98.412 E3.20849
G1 X135.659 Y99.033 E3.22779
G1 X135.041 Y101.453 E3.30376
G1 X134.854 Y102.059 E3.32306
G1 X133.998 Y104.405 E3.39902
G1 X133.752 Y104.990 E3.41833
G1 X132.666 Y107.238 E3.49429
G1 X132.362 Y107.795 E3.51360
G1 X131.058 Y109.925 E3.58956
G1 X130.700 Y110.449 E3.60886
G1 X129.228 Y112.387 E3.68293
G1 X128.781 Y112.923 E3.70413
G1 X127.080 Y114.751 E3.78009
G1 X126.625 Y115.193 E3.79939
G1 X124.751 Y116.842 E3.87536
G1 X124.254 Y117.237 E3.89466
G1 X122.224 Y118.691 E3.97063
G1 X121.690 Y119.034 E3.98993
G1 X119.525 Y120.279 E4.06589
G1 X118.960 Y120.567 E4.08520
G1 X116.682 Y121.589 E4.16116
G1 X116.091 Y121.820 E4.18046
G1 X113.722 Y122.609 E4.25643
G1 X113.111 Y122.780 E4.27573
G1 X110.675 Y123.329 E4.35169
G1 X109.853 Y123.459 E4.37700
G1 X109.115 Y123.500 E4.39948
G1 X100.885 Y123.500 E4.64987
G1 X100.308 Y123.473 E4.66742
G1 X99.325 Y123.329 E4.69765
G1 X96.889 Y122.780 E4.77361
G1 X96.278 Y122.609 E4.79292
G1 X93.909 Y121.820 E4.86889
G1 X93.318 Y121.589 E4.88818
G1 X91.040 Y120.567 E4.96415
G1 X90.475 Y120.279 E4.98345
G1 X88.310 Y119.034 E5.05941
G1 X87.776 Y118.691 E5.07872
G1 X85.746 Y117.237 E5.15468
G1 X85.249 Y116.842 E5.17399
G1 X83.374 Y115.193 E5.24995
G1 X82.920 Y114.751 E5.26925
G1 X81.219 Y112.923 E5.34522
G1 X80.810 Y112.437 E5.36452
G1 X79.300 Y110.449 E5.44049
G1 X78.942 Y109.925 E5.45979
G1 X77.638 Y107.795 E5.53575
G1 X77.334 Y107.238 E5.55506
G1 X76.248 Y104.990 E5.63102
G1 X76.002 Y104.405 E5.65032
G1 X75.146 Y102.059 E5.72629
G1 X74.959 Y101.453 E5.74559
G1 X74.341 Y99.033 E5.82155
G1 X74.215 Y98.412 E5.84086
G1 X73.842 Y95.943 E5.91682
G1 X73.779 Y95.311 E5.93612
G1 X73.654 Y92.817 E6.01209
G1 X73.654 Y92.183 E6.03139
G1 X73.779 Y89.689 E6.10735
G1 X73.842 Y89.057 E6.12666
G1 X74.215 Y86.588 E6.20263
G1 X74.341 Y85.967 E6.22193
G1 X74.959 Y83.547 E6.29789
G1 X75.146 Y82.941 E6.31719
G1 X76.002 Y80.595 E6.39316
G1 X76.248 Y80.010 E6.41246
G1 X77.307 Y77.818 E6.48653
G1 X77.638 Y77.205 E6.50773
G1 X78.942 Y75.075 E6.58369
G1 X79.300 Y74.551 E6.60299
G1 X80.810 Y72.563 E6.67896
G1 X81.190 Y72.112 E6.69689
G1 E5.99689 F600.00000
G92 E0
G1 X84.679 Y75.351 F15300.000
G1 E0.71000 F600.00000
G1 X86.434 Y73.465 E0.78838 F900.000
G1 X88.425 Y71.708 E0.86917
G1 X90.582 Y70.158 E0.94997
G1 X92.953 Y68.795 E1.03318
G1 X95.378 Y67.711 E1.11397
G1 X97.899 Y66.875 E1.19477
G1 X100.424 Y66.306 E1.27353
G1 X100.934 Y66.263 E1.28909
G1 X101.351 Y66.303 E1.30185
G1 X101.757 Y66.410 E1.31462
G1 X102.141 Y66.582 E1.32739
G1 X102.388 Y66.736 E1.33625
G1 X102.800 Y67.098 E1.35293
G1 X103.281 Y67.680 E1.37591
G1 X103.572 Y67.933 E1.38764
G1 X103.899 Y68.136 E1.39936
G1 X104.255 Y68.285 E1.41109
G1 X104.630 Y68.375 E1.42282
G1 X105.014 Y68.403 E1.43454
G1 X105.370 Y68.375 E1.44541
G1 X105.772 Y68.276 E1.45800
G1 X106.126 Y68.123 E1.46972
G1 X106.428 Y67.933 E1.48059
G1 X106.739 Y67.659 E1.49318
G1 X107.290 Y67.005 E1.51922
G1 X107.612 Y66.736 E1.53198
G1 X107.860 Y66.582 E1.54085
G1 X108.243 Y66.410 E1.55362
G1 X108.648 Y66.303 E1.56638
G1 X109.195 Y66.264 E1.58307
G1 X109.576 Y66.306 E1.59471 F900.000
G1 X112.178 Y66.897 E1.67588
G1 X114.696 Y67.740 E1.75667
G1 X117.047 Y68.795 E1.83505
G1 X119.351 Y70.115 E1.91585
G1 X121.430 Y71.599 E1.99353
G1 X121.575 Y71.708 E1.99906
G1 X123.566 Y73.465 E2.07985
G1 X125.373 Y75.412 E2.16065
G1 X126.931 Y77.464 E2.23903
G1 X128.359 Y79.796 E2.32224
G1 X129.510 Y82.190 E2.40303
G1 X130.416 Y84.686 E2.48383
G1 X131.069 Y87.260 E2.56462
G1 X131.454 Y89.808 E2.64300
G1 X131.590 Y92.460 E2.72380
G1 X131.462 Y95.113 E2.80459
G1 X131.053 Y97.817 E2.88780
G1 X130.393 Y100.390 E2.96860
G1 X129.510 Y102.810 E3.04698
G1 X128.359 Y105.204 E3.12777
G1 X126.976 Y107.471 E3.20857
G1 X125.321 Y109.649 E3.29178
G1 X123.509 Y111.591 E3.37257
G1 X121.513 Y113.342 E3.45337
G1 X119.418 Y114.842 E3.53175
G1 X117.117 Y116.169 E3.61254
G1 X114.622 Y117.289 E3.69575
G1 X112.101 Y118.125 E3.77655
G1 X109.576 Y118.694 E3.85530
G1 X109.196 Y118.736 E3.86694
G1 X108.649 Y118.697 E3.88362
G1 X108.365 Y118.629 E3.89248
G1 X107.974 Y118.477 E3.90524
G1 X107.613 Y118.264 E3.91802
G1 X107.290 Y117.995 E3.93080
G1 X106.739 Y117.341 E3.95683
G1 X106.428 Y117.067 E3.96942
G1 X106.101 Y116.864 E3.98114
G1 X105.772 Y116.724 E3.99201
G1 X105.398 Y116.630 E4.00374
G1 X105.014 Y116.597 E4.01546
G1 X104.602 Y116.630 E4.02805
G1 X104.228 Y116.724 E4.03978
G1 X103.874 Y116.877 E4.05150
G1 X103.572 Y117.067 E4.06237
G1 X103.281 Y117.320 E4.07410
G1 X102.800 Y117.902 E4.09708
G1 X102.388 Y118.264 E4.11375
G1 X102.141 Y118.418 E4.12261
G1 X101.820 Y118.563 E4.13331
G1 X101.635 Y118.629 E4.13931
G1 X101.351 Y118.697 E4.14817
G1 X100.934 Y118.737 E4.16093
G1 X100.424 Y118.694 E4.17649
G1 X97.822 Y118.103 E4.25766
G1 X95.304 Y117.260 E4.33845
G1 X92.883 Y116.169 E4.41925
G1 X90.582 Y114.842 E4.50004
G1 X88.487 Y113.342 E4.57842
G1 X86.434 Y111.535 E4.66163
G1 X84.627 Y109.588 E4.74243
G1 X83.069 Y107.536 E4.82081
G1 X81.641 Y105.204 E4.90402
G1 X80.490 Y102.810 E4.98481
G1 X79.607 Y100.390 E5.06319
G1 X78.947 Y97.817 E5.14399
G1 X78.546 Y95.192 E5.22478
G1 X78.410 Y92.460 E5.30799
G1 X78.538 Y89.887 E5.38637
G1 X78.931 Y87.260 E5.46717
G1 X79.584 Y84.686 E5.54796
G1 X80.490 Y82.190 E5.62876
G1 X81.679 Y79.726 E5.71197
G1 X83.069 Y77.464 E5.79276
G1 X84.650 Y75.385 E5.87219
G1 X84.920 Y75.613 F15300.000
G1 X86.731 Y73.669 E5.95301 F900.000
G1 X88.700 Y71.940 E6.03273
G1 X90.780 Y70.450 E6.11057
G1 X93.051 Y69.142 E6.19030
G1 X95.498 Y68.044 E6.27189
G1 X97.985 Y67.218 E6.35162
G1 X100.491 Y66.653 E6.42975
G1 X100.923 Y66.616 E6.44295
G1 X101.284 Y66.650 E6.45397
G1 X101.634 Y66.742 E6.46500
G1 X101.966 Y66.889 E6.47603
G1 X102.188 Y67.028 E6.48401
G1 X102.536 Y67.333 E6.49808
G1 X103.026 Y67.926 E6.52148
G1 X103.359 Y68.217 E6.53494
G1 X103.735 Y68.451 E6.54840
G1 X104.143 Y68.621 E6.56185
G1 X104.545 Y68.720 E6.57445
G1 X104.986 Y68.758 E6.58791
G1 X105.427 Y68.725 E6.60136
G1 X105.884 Y68.612 E6.61568
G1 X106.290 Y68.437 E6.62914
G1 X106.641 Y68.217 E6.64173
G1 X106.994 Y67.906 E6.65605
G1 X107.534 Y67.261 E6.68164
G1 X107.812 Y67.028 E6.69266
G1 X108.035 Y66.889 E6.70065
G1 X108.461 Y66.711 E6.71471
G1 X108.815 Y66.635 E6.72574
G1 X109.078 Y66.616 E6.73374
G1 X109.509 Y66.653 E6.74692 F900.000
G1 X112.074 Y67.235 E6.82693
G1 X114.559 Y68.066 E6.90665
G1 X116.894 Y69.114 E6.98450
G1 X119.168 Y70.417 E7.06422
G1 X121.224 Y71.886 E7.14110
G1 X123.314 Y73.712 E7.22552
G1 X125.057 Y75.585 E7.30337
G1 X126.644 Y77.670 E7.38309
G1 X128.045 Y79.958 E7.46469
G1 X129.181 Y82.319 E7.54441
G1 X130.076 Y84.782 E7.62413
G1 X130.721 Y87.322 E7.70385
G1 X131.103 Y89.852 E7.78169
G1 X131.237 Y92.469 E7.86141
G1 X131.109 Y95.086 E7.94113
G1 X130.709 Y97.739 E8.02273
G1 X130.058 Y100.277 E8.10245
G1 X129.181 Y102.681 E8.18030
G1 X128.045 Y105.042 E8.26002
G1 X126.679 Y107.279 E8.33974
G1 X125.057 Y109.415 E8.42134
G1 X123.269 Y111.331 E8.50106
G1 X121.300 Y113.060 E8.58078
G1 X119.168 Y114.583 E8.66050
G1 X116.949 Y115.858 E8.73834
G1 X114.502 Y116.956 E8.81994
G1 X112.015 Y117.782 E8.89966
G1 X109.509 Y118.347 E8.97780
G1 X109.178 Y118.383 E8.98795
G1 X108.816 Y118.365 E8.99897
G1 X108.366 Y118.258 E9.01305
G1 X108.034 Y118.111 E9.02407
G1 X107.812 Y117.972 E9.03206
G1 X107.464 Y117.667 E9.04613
G1 X106.974 Y117.074 E9.06953
G1 X106.663 Y116.800 E9.08212
G1 X106.290 Y116.563 E9.09558
G1 X105.884 Y116.388 E9.10904
G1 X105.455 Y116.280 E9.12249
G1 X104.986 Y116.242 E9.13681
G1 X104.573 Y116.275 E9.14941
G1 X104.143 Y116.379 E9.16287
G1 X103.710 Y116.563 E9.17718
G1 X103.359 Y116.783 E9.18978
G1 X103.026 Y117.074 E9.20323
G1 X102.536 Y117.667 E9.22664
G1 X102.188 Y117.972 E9.24070
G1 X101.966 Y118.111 E9.24869
G1 X101.684 Y118.237 E9.25807
G1 X101.284 Y118.350 E9.27073
G1 X100.923 Y118.384 E9.28176
G1 X100.491 Y118.347 E9.29495
G1 X97.926 Y117.765 E9.37497
G1 X95.441 Y116.934 E9.45469
G1 X93.051 Y115.858 E9.53441
G1 X90.781 Y114.550 E9.61413
G1 X88.700 Y113.060 E9.69197
G1 X86.686 Y111.288 E9.77357
G1 X84.943 Y109.415 E9.85141
G1 X83.356 Y107.330 E9.93114
G1 X81.955 Y105.042 E10.01273
G1 X80.819 Y102.681 E10.09246
G1 X79.942 Y100.277 E10.17030
G1 X79.291 Y97.739 E10.25002
G1 X78.897 Y95.148 E10.32974
G1 X78.763 Y92.469 E10.41134
G1 X78.897 Y89.852 E10.49106
G1 X79.279 Y87.322 E10.56890
G1 X79.942 Y84.723 E10.65050
G1 X80.819 Y82.319 E10.72835
G1 X81.955 Y79.958 E10.80807
G1 X83.321 Y77.721 E10.88779
G1 X84.892 Y75.648 E10.96692
G1 X85.173 Y75.862 F15300.000
G1 X86.939 Y73.959 E11.04589 F900.000
G1 X88.913 Y72.223 E11.12587
G1 X90.979 Y70.743 E11.20318
G1 X93.219 Y69.453 E11.28183
G1 X95.618 Y68.376 E11.36182
G1 X98.072 Y67.561 E11.44046
G1 X100.557 Y67.000 E11.51798
G1 X100.912 Y66.970 E11.52881
G1 X101.216 Y66.997 E11.53809
G1 X101.511 Y67.074 E11.54738
G1 X101.791 Y67.197 E11.55666
G1 X101.989 Y67.321 E11.56378
G1 X102.272 Y67.569 E11.57523
G1 X102.771 Y68.172 E11.59905
G1 X103.147 Y68.501 E11.61424
G1 X103.571 Y68.765 E11.62943
G1 X104.031 Y68.958 E11.64461
G1 X104.516 Y69.075 E11.65980
G1 X105.014 Y69.112 E11.67499
G1 X105.484 Y69.075 E11.68931
G1 X105.996 Y68.949 E11.70536
G1 X106.429 Y68.765 E11.71969
G1 X106.853 Y68.501 E11.73487
G1 X107.249 Y68.152 E11.75092
G1 X107.778 Y67.517 E11.77606
G1 X108.011 Y67.320 E11.78534
G1 X108.209 Y67.197 E11.79246
G1 X108.489 Y67.074 E11.80174
G1 X108.784 Y66.997 E11.81102
G1 X109.160 Y66.971 E11.82248
G1 X109.443 Y67.000 E11.83114 F900.000
G1 X111.971 Y67.573 E11.90999
G1 X114.382 Y68.376 E11.98730
G1 X116.741 Y69.433 E12.06595
G1 X118.984 Y70.719 E12.14460
G1 X121.018 Y72.173 E12.22067
G1 X123.061 Y73.959 E12.30322
G1 X124.820 Y75.853 E12.38187
G1 X126.357 Y77.877 E12.45917
G1 X127.730 Y80.119 E12.53916
G1 X128.852 Y82.448 E12.61781
G1 X129.723 Y84.836 E12.69511
G1 X130.364 Y87.340 E12.77376
G1 X130.752 Y89.896 E12.85241
G1 X130.884 Y92.478 E12.93105
G1 X130.757 Y95.060 E13.00970
G1 X130.364 Y97.660 E13.08969
G1 X129.723 Y100.164 E13.16834
G1 X128.852 Y102.552 E13.24564
G1 X127.730 Y104.881 E13.32429
G1 X126.382 Y107.087 E13.40294
G1 X124.792 Y109.181 E13.48293
G1 X123.029 Y111.072 E13.56157
G1 X121.087 Y112.777 E13.64022
G1 X118.984 Y114.281 E13.71887
G1 X116.781 Y115.547 E13.79617
G1 X114.382 Y116.624 E13.87616
G1 X111.928 Y117.439 E13.95481
G1 X109.443 Y118.000 E14.03232
G1 X109.160 Y118.029 E14.04098
G1 X108.855 Y118.013 E14.05026
G1 X108.489 Y117.926 E14.06172
G1 X108.209 Y117.803 E14.07101
G1 X108.011 Y117.680 E14.07812
G1 X107.728 Y117.431 E14.08958
G1 X107.229 Y116.828 E14.11340
G1 X106.853 Y116.499 E14.12859
G1 X106.454 Y116.248 E14.14291
G1 X105.996 Y116.051 E14.15810
G1 X105.512 Y115.930 E14.17328
G1 X104.986 Y115.888 E14.18933
G1 X104.488 Y115.930 E14.20452
G1 X104.031 Y116.042 E14.21884
G1 X103.546 Y116.248 E14.23489
G1 X103.147 Y116.499 E14.24922
G1 X102.771 Y116.828 E14.26440
G1 X102.272 Y117.431 E14.28823
G1 X102.047 Y117.637 E14.29750
G1 X101.727 Y117.836 E14.30897
G1 X101.511 Y117.926 E14.31608
G1 X101.216 Y118.003 E14.32537
G1 X100.912 Y118.030 E14.33465
G1 X100.557 Y118.000 E14.34548
G1 X98.029 Y117.427 E14.42434
G1 X95.618 Y116.624 E14.50164
G1 X93.259 Y115.567 E14.58029
G1 X91.016 Y114.281 E14.65894
G1 X88.913 Y112.777 E14.73758
G1 X86.939 Y111.041 E14.81757
G1 X85.180 Y109.147 E14.89622
G1 X83.643 Y107.123 E14.97353
G1 X82.270 Y104.881 E15.05351
G1 X81.148 Y102.552 E15.13216
G1 X80.277 Y100.164 E15.20947
G1 X79.636 Y97.660 E15.28811
G1 X79.248 Y95.104 E15.36676
G1 X79.116 Y92.478 E15.44675
G1 X79.248 Y89.896 E15.52540
G1 X79.627 Y87.383 E15.60270
G1 X80.277 Y84.836 E15.68269
G1 X81.148 Y82.448 E15.76000
G1 X82.270 Y80.119 E15.83864
G1 X83.618 Y77.913 E15.91729
G1 X85.146 Y75.898 E15.99425
G1 X85.428 Y76.111 F15300.000
G1 X87.192 Y74.206 E16.07324 F900.000
G1 X89.126 Y72.505 E16.15161
G1 X91.200 Y71.021 E16.22919
G1 X93.388 Y69.764 E16.30596
G1 X95.739 Y68.709 E16.38433
G1 X98.158 Y67.904 E16.46191
G1 X100.624 Y67.348 E16.53880
G1 X100.858 Y67.324 E16.54597
G1 X101.105 Y67.338 E16.55351
G1 X101.388 Y67.405 E16.56236
G1 X101.616 Y67.504 E16.56990
G1 X101.824 Y67.638 E16.57744
G1 X102.008 Y67.804 E16.58498
G1 X102.516 Y68.419 E16.60923
G1 X102.935 Y68.785 E16.62614
G1 X103.406 Y69.079 E16.64306
G1 X103.892 Y69.285 E16.65911
G1 X104.432 Y69.420 E16.67603
G1 X104.986 Y69.467 E16.69295
G1 X105.540 Y69.425 E16.70987
G1 X106.081 Y69.294 E16.72678
G1 X106.619 Y69.066 E16.74456
G1 X107.088 Y68.768 E16.76148
G1 X107.484 Y68.419 E16.77753
G1 X107.992 Y67.804 E16.80178
G1 X108.210 Y67.613 E16.81062
G1 X108.384 Y67.504 E16.81686
G1 X108.612 Y67.405 E16.82440
G1 X108.852 Y67.345 E16.83194
G1 X109.099 Y67.323 E16.83949
G1 X109.376 Y67.348 E16.84796 F900.000
G1 X111.868 Y67.911 E16.92565
G1 X114.286 Y68.719 E17.00323
G1 X116.589 Y69.751 E17.08000
G1 X118.800 Y71.021 E17.15757
G1 X120.874 Y72.505 E17.23514
G1 X122.808 Y74.206 E17.31352
G1 X124.527 Y76.054 E17.39029
G1 X126.070 Y78.084 E17.46786
G1 X127.416 Y80.281 E17.54624
G1 X128.523 Y82.578 E17.62381
G1 X129.388 Y84.949 E17.70058
G1 X130.019 Y87.419 E17.77816
G1 X130.401 Y89.940 E17.85573
G1 X130.530 Y92.487 E17.93330
G1 X130.404 Y95.034 E18.01087
G1 X130.019 Y97.581 E18.08925
G1 X129.388 Y100.051 E18.16683
G1 X128.523 Y102.422 E18.24359
G1 X127.416 Y104.719 E18.32117
G1 X126.085 Y106.894 E18.39874
G1 X124.527 Y108.946 E18.47712
G1 X122.789 Y110.812 E18.55469
G1 X120.874 Y112.495 E18.63227
G1 X118.822 Y113.965 E18.70903
G1 X116.612 Y115.236 E18.78661
G1 X114.261 Y116.291 E18.86499
G1 X111.842 Y117.096 E18.94256
G1 X109.376 Y117.652 E19.01945
G1 X109.142 Y117.676 E19.02662
G1 X108.895 Y117.662 E19.03416
G1 X108.612 Y117.595 E19.04301
G1 X108.384 Y117.496 E19.05055
G1 X108.176 Y117.362 E19.05809
G1 X107.992 Y117.196 E19.06563
G1 X107.484 Y116.581 E19.08988
G1 X107.088 Y116.232 E19.10593
G1 X106.619 Y115.934 E19.12285
G1 X106.108 Y115.715 E19.13977
G1 X105.568 Y115.580 E19.15668
G1 X104.986 Y115.533 E19.17446
G1 X104.460 Y115.575 E19.19052
G1 X103.919 Y115.706 E19.20743
G1 X103.381 Y115.934 E19.22521
G1 X102.935 Y116.215 E19.24127
G1 X102.516 Y116.581 E19.25818
