; generated by Slic3r 1.2.4 on 2015-01-05 at 22:18:30

; external perimeters extrusion width = 0.30mm
; perimeters extrusion width = 0.40mm
; infill extrusion width = 0.40mm
; solid infill extrusion width = 0.40mm
; top infill extrusion width = 0.40mm
; support material extrusion width = 0.30mm

M190 S45 ; set bed temperature
M104 S220 ; set temperature
G28 ; home all axes
G92 E0;
G1 E1 F1200 ;
G92 E0 ;
M109 S220 ; wait for temperature to be reached
G21 ; set units to millimeters
G90 ; use absolute coordinates
M82 ; use absolute distances for extrusion
G92 E0
G1 E-0.70000 F600.00000
G92 E0
G1 Z0.200 F15300.000
G1 X81.426 Y71.838 F15300.000
G1 E0.71000 F600.00000
G1 X83.171 Y70.003 E0.78704 F900.000
G1 X83.637 Y69.559 E0.80662
G1 X85.559 Y67.910 E0.88366
G1 X86.068 Y67.516 E0.90324
G1 X88.094 Y66.105 E0.97836
G1 X88.693 Y65.729 E0.99986
G1 X90.907 Y64.500 E1.07691
G1 X91.485 Y64.216 E1.09648
G1 X93.812 Y63.218 E1.17353
G1 X94.415 Y62.994 E1.19310
G1 X96.832 Y62.236 E1.27015
G1 X97.455 Y62.075 E1.28973
G1 X99.935 Y61.565 E1.36677
G1 X100.572 Y61.467 E1.38635
G1 X103.091 Y61.211 E1.46339
G1 X103.734 Y61.179 E1.48297
G1 X106.266 Y61.179 E1.56001
G1 X106.909 Y61.211 E1.57959
G1 X109.428 Y61.467 E1.65663 F900.000
G1 X110.065 Y61.565 E1.67621
G1 X112.545 Y62.075 E1.75325
G1 X113.168 Y62.236 E1.77283
G1 X115.585 Y62.994 E1.84987
G1 X116.188 Y63.218 E1.86945
G1 X118.515 Y64.216 E1.94650
G1 X119.093 Y64.500 E1.96608
G1 X121.307 Y65.729 E2.04312
G1 X121.854 Y66.069 E2.06270
G1 X123.932 Y67.516 E2.13974
G1 X124.441 Y67.910 E2.15932
G1 X126.363 Y69.560 E2.23636
G1 X126.829 Y70.003 E2.25594
G1 X128.574 Y71.838 E2.33298
G1 X128.993 Y72.327 E2.35256
G1 X130.504 Y74.279 E2.42768
G1 X130.911 Y74.858 E2.44918
G1 X132.250 Y77.007 E2.52622
G1 X132.563 Y77.569 E2.54580
G1 X133.678 Y79.843 E2.62285
G1 X133.932 Y80.435 E2.64242
G1 X134.811 Y82.809 E2.71946
G1 X135.004 Y83.423 E2.73904
G1 X135.639 Y85.875 E2.81609
G1 X135.768 Y86.505 E2.83566
G1 X136.152 Y89.009 E2.91271
G1 X136.217 Y89.649 E2.93229
G1 X136.345 Y92.178 E3.00933
G1 X136.345 Y92.822 E3.02891
G1 X136.217 Y95.351 E3.10595
G1 X136.152 Y95.991 E3.12553
G1 X135.768 Y98.495 E3.20257
G1 X135.639 Y99.125 E3.22215
G1 X135.004 Y101.577 E3.29919
G1 X134.811 Y102.191 E3.31877
G1 X133.954 Y104.506 E3.39389
G1 X133.678 Y105.157 E3.41539
G1 X132.563 Y107.431 E3.49243
G1 X132.250 Y107.993 E3.51201
G1 X130.911 Y110.142 E3.58905
G1 X130.543 Y110.671 E3.60863
G1 X128.993 Y112.673 E3.68567
G1 X128.574 Y113.162 E3.70525
G1 X126.873 Y114.951 E3.78037
G1 X126.363 Y115.441 E3.80187
G1 X124.441 Y117.090 E3.87892
G1 X123.932 Y117.484 E3.89849
G1 X121.854 Y118.931 E3.97554
G1 X121.307 Y119.271 E3.99512
G1 X119.093 Y120.500 E4.07216
G1 X118.515 Y120.784 E4.09174
G1 X116.188 Y121.782 E4.16878
G1 X115.585 Y122.006 E4.18836
G1 X113.168 Y122.764 E4.26540
G1 X112.545 Y122.925 E4.28498
G1 X110.065 Y123.435 E4.36202
G1 X109.428 Y123.533 E4.38160
G1 X106.909 Y123.789 E4.45865
G1 X106.266 Y123.821 E4.47822
G1 X103.734 Y123.821 E4.55526
G1 X103.091 Y123.789 E4.57484
G1 X100.572 Y123.533 E4.65189
G1 X99.935 Y123.435 E4.67147
G1 X97.455 Y122.925 E4.74851
G1 X96.832 Y122.764 E4.76809
G1 X94.415 Y122.006 E4.84513
G1 X93.812 Y121.782 E4.86471
G1 X91.485 Y120.784 E4.94175
G1 X90.907 Y120.500 E4.96133
G1 X88.693 Y119.271 E5.03837
G1 X88.146 Y118.931 E5.05795
G1 X86.068 Y117.484 E5.13499
G1 X85.559 Y117.090 E5.15457
G1 X83.637 Y115.441 E5.23162
G1 X83.171 Y114.997 E5.25119
G1 X81.426 Y113.162 E5.32824
G1 X81.007 Y112.673 E5.34781
G1 X79.457 Y110.671 E5.42486
G1 X79.089 Y110.142 E5.44444
G1 X77.750 Y107.993 E5.52148
G1 X77.437 Y107.431 E5.54106
G1 X76.322 Y105.157 E5.61810
G1 X76.068 Y104.565 E5.63768
G1 X75.189 Y102.191 E5.71472
G1 X74.996 Y101.577 E5.73430
G1 X74.361 Y99.125 E5.81134
G1 X74.232 Y98.495 E5.83092
G1 X73.858 Y96.054 E5.90604
G1 X73.783 Y95.351 E5.92754
G1 X73.655 Y92.822 E6.00458
G1 X73.655 Y92.178 E6.02416
G1 X73.783 Y89.649 E6.10121
G1 X73.848 Y89.009 E6.12078
G1 X74.232 Y86.505 E6.19783
G1 X74.361 Y85.875 E6.21740
G1 X74.996 Y83.423 E6.29445
G1 X75.189 Y82.809 E6.31402
G1 X76.068 Y80.435 E6.39107
G1 X76.322 Y79.843 E6.41065
G1 X77.409 Y77.626 E6.48576
G1 X77.750 Y77.007 E6.50727
G1 X79.089 Y74.858 E6.58431
G1 X79.457 Y74.329 E6.60389
G1 X81.007 Y72.327 E6.68093
G1 X81.397 Y71.873 E6.69914
G1 E5.99914 F600.00000
G92 E0
G1 X84.851 Y75.149 F15300.000
G1 E0.71000 F600.00000
G1 X86.709 Y73.200 E0.79194 F900.000
G1 X88.692 Y71.498 E0.87144
G1 X90.815 Y70.015 E0.95023
G1 X90.969 Y69.913 E0.95583
G1 X93.254 Y68.645 E1.03533
G1 X95.727 Y67.579 E1.11727
G1 X98.296 Y66.769 E1.19921
G1 X101.013 Y66.210 E1.28360
G1 X103.693 Y65.942 E1.36555
G1 X106.387 Y65.946 E1.44749
G1 X109.066 Y66.222 E1.52943 F900.000
G1 X111.626 Y66.748 E1.60893
G1 X114.273 Y67.579 E1.69332
G1 X116.746 Y68.645 E1.77526
G1 X119.100 Y69.956 E1.85721
G1 X121.308 Y71.498 E1.93915
G1 X123.291 Y73.200 E2.01865
G1 X125.149 Y75.149 E2.10059
G1 X126.738 Y77.195 E2.17938
G1 X126.847 Y77.343 E2.18498
G1 X128.269 Y79.631 E2.26693
G1 X129.451 Y82.051 E2.34887
G1 X130.383 Y84.578 E2.43081
G1 X131.054 Y87.187 E2.51276
G1 X131.450 Y89.770 E2.59225
G1 X131.590 Y92.540 E2.67664
G1 X131.458 Y95.150 E2.75614
G1 X131.054 Y97.813 E2.83808
G1 X130.383 Y100.422 E2.92002
G1 X129.487 Y102.852 E2.99881
G1 X129.420 Y103.023 E3.00442
G1 X128.230 Y105.440 E3.08636
G1 X126.801 Y107.723 E3.16830
G1 X125.202 Y109.790 E3.24780
G1 X123.291 Y111.800 E3.33219
G1 X121.244 Y113.552 E3.41413
G1 X119.031 Y115.087 E3.49608
G1 X116.746 Y116.355 E3.57557
G1 X114.273 Y117.421 E3.65751
G1 X111.626 Y118.252 E3.74191
G1 X108.987 Y118.790 E3.82385
G1 X106.387 Y119.054 E3.90335
G1 X103.693 Y119.058 E3.98529
G1 X101.013 Y118.790 E4.06723
G1 X98.296 Y118.231 E4.15162
G1 X95.727 Y117.421 E4.23357
G1 X93.326 Y116.391 E4.31306
G1 X90.900 Y115.044 E4.39745
G1 X88.692 Y113.502 E4.47940
G1 X86.651 Y111.745 E4.56134
G1 X84.851 Y109.851 E4.64084
G1 X83.199 Y107.723 E4.72278
G1 X81.731 Y105.369 E4.80717
G1 X80.549 Y102.949 E4.88911
G1 X79.641 Y100.499 E4.96861
G1 X78.962 Y97.892 E5.05055
G1 X78.566 Y95.333 E5.12934
G1 X78.542 Y95.150 E5.13495
G1 X78.410 Y92.460 E5.21689
G1 X78.542 Y89.850 E5.29638
G1 X78.946 Y87.187 E5.37833
G1 X79.617 Y84.578 E5.46027
G1 X80.549 Y82.051 E5.54221
G1 X81.770 Y79.560 E5.62661
G1 X83.199 Y77.277 E5.70855
G1 X84.821 Y75.183 E5.78912
G1 X85.089 Y75.414 F15300.000
G1 X86.946 Y73.462 E5.87107 F900.000
G1 X88.965 Y71.733 E5.95193
G1 X91.148 Y70.218 E6.03278
G1 X93.474 Y68.930 E6.11364
G1 X95.858 Y67.907 E6.19259
G1 X98.303 Y67.137 E6.27056
G1 X100.996 Y66.570 E6.35428
G1 X103.640 Y66.298 E6.43513
G1 X106.298 Y66.295 E6.51599
G1 X109.004 Y66.570 E6.59875 F900.000
G1 X111.607 Y67.108 E6.67960
G1 X114.142 Y67.907 E6.76046
G1 X116.583 Y68.958 E6.84131
G1 X118.852 Y70.218 E6.92026
G1 X121.085 Y71.772 E7.00302
G1 X123.099 Y73.505 E7.08387
G1 X124.928 Y75.434 E7.16473
G1 X126.516 Y77.486 E7.24368
G1 X127.925 Y79.740 E7.32453
G1 X129.123 Y82.182 E7.40729
G1 X130.043 Y84.676 E7.48814
G1 X130.706 Y87.249 E7.56900
G1 X131.106 Y89.877 E7.64985
G1 X131.237 Y92.469 E7.72880
G1 X131.099 Y95.186 E7.81156
G1 X130.694 Y97.812 E7.89241
G1 X130.024 Y100.384 E7.97327
G1 X129.123 Y102.818 E8.05222
G1 X127.955 Y105.205 E8.13307
G1 X126.516 Y107.514 E8.21583
G1 X124.887 Y109.614 E8.29668
G1 X123.099 Y111.495 E8.37563
G1 X121.085 Y113.228 E8.45649
G1 X118.983 Y114.695 E8.53446
G1 X116.526 Y116.070 E8.62009
G1 X114.083 Y117.115 E8.70094
G1 X111.607 Y117.892 E8.77989
G1 X108.942 Y118.439 E8.86265
G1 X106.298 Y118.705 E8.94350
G1 X103.640 Y118.702 E9.02436
G1 X100.996 Y118.430 E9.10521
G1 X98.454 Y117.907 E9.18416
G1 X95.917 Y117.115 E9.26501
G1 X93.560 Y116.107 E9.34299
G1 X91.095 Y114.749 E9.42861
G1 X88.915 Y113.228 E9.50947
G1 X86.946 Y111.538 E9.58842
G1 X85.072 Y109.566 E9.67118
G1 X83.448 Y107.463 E9.75203
G1 X82.075 Y105.260 E9.83098
G1 X80.877 Y102.818 E9.91374
G1 X79.976 Y100.384 E9.99269
G1 X79.306 Y97.812 E10.07354
G1 X78.901 Y95.186 E10.15440
G1 X78.763 Y92.531 E10.23525
G1 X78.901 Y89.814 E10.31801
G1 X79.306 Y87.188 E10.39886
G1 X79.976 Y84.616 E10.47972
G1 X80.902 Y82.124 E10.56057
G1 X82.045 Y79.795 E10.63952
G1 X83.448 Y77.537 E10.72038
G1 X85.061 Y75.448 E10.80067
G1 X85.340 Y75.665 F15300.000
G1 X87.151 Y73.755 E10.88072 F900.000
G1 X89.139 Y72.046 E10.96049
G1 X91.290 Y70.546 E11.04025
G1 X93.621 Y69.252 E11.12138
G1 X95.990 Y68.235 E11.19978
G1 X98.409 Y67.474 E11.27694
G1 X101.058 Y66.918 E11.35930
G1 X103.667 Y66.651 E11.43906
G1 X106.333 Y66.651 E11.52019
G1 X108.942 Y66.918 E11.59995 F900.000
G1 X111.466 Y67.437 E11.67836
G1 X114.010 Y68.235 E11.75948
G1 X116.419 Y69.271 E11.83925
G1 X118.672 Y70.522 E11.91765
G1 X120.826 Y72.018 E11.99742
G1 X122.817 Y73.724 E12.07718
G1 X124.625 Y75.623 E12.15695
G1 X126.179 Y77.627 E12.23411
G1 X127.642 Y79.958 E12.31783
G1 X128.777 Y82.272 E12.39623
G1 X129.690 Y84.730 E12.47599
G1 X130.358 Y87.312 E12.55712
G1 X130.753 Y89.904 E12.63688
G1 X130.884 Y92.478 E12.71529
G1 X130.749 Y95.141 E12.79642
G1 X130.349 Y97.732 E12.87618
G1 X129.703 Y100.227 E12.95458
G1 X128.795 Y102.687 E13.03435
G1 X127.642 Y105.042 E13.11411
G1 X126.231 Y107.305 E13.19524
G1 X124.625 Y109.377 E13.27500
G1 X122.849 Y111.245 E13.35341
G1 X120.861 Y112.954 E13.43317
G1 X118.710 Y114.454 E13.51294
G1 X116.379 Y115.748 E13.59406
G1 X114.011 Y116.765 E13.67247
G1 X111.509 Y117.552 E13.75223
G1 X108.897 Y118.088 E13.83336
G1 X106.289 Y118.351 E13.91312
G1 X103.667 Y118.349 E13.99289
G1 X101.058 Y118.082 E14.07265
G1 X98.534 Y117.563 E14.15106
G1 X95.990 Y116.765 E14.23218
G1 X93.621 Y115.748 E14.31059
G1 X91.328 Y114.478 E14.39035
G1 X89.174 Y112.982 E14.47012
G1 X87.248 Y111.331 E14.54728
G1 X85.346 Y109.343 E14.63100
G1 X83.769 Y107.305 E14.70940
G1 X82.380 Y105.081 E14.78917
G1 X81.205 Y102.687 E14.87029
G1 X80.297 Y100.227 E14.95006
G1 X79.651 Y97.732 E15.02846
G1 X79.251 Y95.141 E15.10823
G1 X79.116 Y92.522 E15.18799
G1 X79.251 Y89.859 E15.26912
G1 X79.651 Y87.268 E15.34888
G1 X80.310 Y84.730 E15.42865
G1 X81.205 Y82.313 E15.50705
G1 X82.358 Y79.958 E15.58682
G1 X83.743 Y77.732 E15.66658
G1 X85.313 Y75.700 E15.74469
G1 X85.592 Y75.916 F15300.000
G1 X87.401 Y74.005 E15.82474 F900.000
G1 X89.362 Y72.320 E15.90342
G1 X91.507 Y70.827 E15.98291
G1 X93.769 Y69.573 E16.06159
G1 X96.121 Y68.564 E16.13945
G1 X98.515 Y67.811 E16.21579
G1 X101.121 Y67.266 E16.29679
G1 X103.694 Y67.003 E16.37546
G1 X106.280 Y67.002 E16.45414
G1 X108.879 Y67.266 E16.53363 F900.000
G1 X111.412 Y67.788 E16.61230
G1 X113.879 Y68.564 E16.69098
G1 X116.231 Y69.573 E16.76884
G1 X118.493 Y70.827 E16.84752
G1 X120.638 Y72.320 E16.92701
G1 X122.599 Y74.005 E17.00568
G1 X124.362 Y75.860 E17.08354
G1 X125.947 Y77.904 E17.16222
G1 X127.275 Y80.033 E17.23856
G1 X128.466 Y82.444 E17.32038
G1 X129.363 Y84.870 E17.39905
G1 X130.005 Y87.348 E17.47691
G1 X130.401 Y89.931 E17.55640
G1 X130.530 Y92.513 E17.63508
G1 X130.398 Y95.096 E17.71375
G1 X130.010 Y97.626 E17.79161
G1 X129.363 Y100.130 E17.87029
G1 X128.456 Y102.580 E17.94978
G1 X127.316 Y104.902 E18.02846
G1 X125.947 Y107.096 E18.10713
G1 X124.362 Y109.140 E18.18581
G1 X122.599 Y110.995 E18.26367
G1 X120.638 Y112.680 E18.34234
G1 X118.579 Y114.115 E18.41869
G1 X116.231 Y115.427 E18.50050
G1 X113.854 Y116.446 E18.57918
G1 X111.412 Y117.212 E18.65704
G1 X108.853 Y117.738 E18.73653
G1 X106.306 Y117.997 E18.81439
G1 X103.720 Y117.998 E18.89306
G1 X101.147 Y117.738 E18.97174
G1 X98.614 Y117.219 E19.05042
G1 X96.121 Y116.436 E19.12991
G1 X93.745 Y115.415 E19.20858
G1 X91.507 Y114.173 E19.28644
G1 X89.383 Y112.697 E19.36512
G1 X87.479 Y111.063 E19.44146
G1 X85.620 Y109.119 E19.52327
G1 X84.053 Y107.096 E19.60113
G1 X82.684 Y104.902 E19.67981
G1 X81.534 Y102.556 E19.75930
G1 X80.645 Y100.156 E19.83716
G1 X79.995 Y97.652 E19.91584
G1 X79.602 Y95.096 E19.99451
G1 X79.470 Y92.513 E20.07319
G1 X79.602 Y89.904 E20.15268
G1 X79.995 Y87.348 E20.23136
G1 X80.645 Y84.844 E20.31003
G1 X81.544 Y82.420 E20.38871
G1 X82.671 Y80.122 E20.46657
G1 X84.038 Y77.926 E20.54524
G1 X85.565 Y75.952 E20.62117
G1 X85.844 Y76.168 F15300.000
G1 X87.651 Y74.255 E20.70122 F900.000
G1 X89.586 Y72.594 E20.77881
G1 X91.679 Y71.136 E20.85639
G1 X93.916 Y69.894 E20.93425
G1 X96.252 Y68.892 E21.01157
G1 X98.620 Y68.148 E21.08709
G1 X101.183 Y67.614 E21.16673
G1 X103.720 Y67.356 E21.24432
G1 X106.280 Y67.356 E21.32218
G1 X108.817 Y67.614 E21.39976 F900.000
G1 X111.306 Y68.126 E21.47708
G1 X113.748 Y68.892 E21.55494
G1 X116.092 Y69.898 E21.63252
G1 X118.321 Y71.136 E21.71011
G1 X120.407 Y72.588 E21.78742
G1 X122.343 Y74.249 E21.86501
G1 X124.106 Y76.104 E21.94287
G1 X125.667 Y78.121 E22.02046
G1 X127.015 Y80.286 E22.09804
G1 X128.135 Y82.567 E22.17536
G1 X129.021 Y84.959 E22.25294
G1 X129.662 Y87.436 E22.33080
G1 X130.047 Y89.948 E22.40812
G1 X130.177 Y92.496 E22.48570
G1 X130.047 Y95.052 E22.56356
G1 X129.662 Y97.564 E22.64088
G1 X129.023 Y100.033 E22.71846
G1 X128.138 Y102.424 E22.79605
G1 X127.015 Y104.714 E22.87364
G1 X125.662 Y106.886 E22.95150
G1 X124.100 Y108.903 E23.02908
G1 X122.349 Y110.745 E23.10640
G1 X120.414 Y112.406 E23.18398
G1 X118.377 Y113.825 E23.25951
G1 X116.084 Y115.106 E23.33942
G1 X113.748 Y116.108 E23.41673
G1 X111.315 Y116.872 E23.49432
G1 X108.808 Y117.387 E23.57218
G1 X106.280 Y117.644 E23.64949
G1 X103.729 Y117.645 E23.72708
G1 X101.192 Y117.387 E23.80467
G1 X98.694 Y116.874 E23.88225
G1 X96.252 Y116.108 E23.96011
G1 X93.916 Y115.106 E24.03743
G1 X91.686 Y113.868 E24.11501
G1 X89.593 Y112.412 E24.19260
G1 X87.709 Y110.795 E24.26812
G1 X85.894 Y108.896 E24.34804
G1 X84.338 Y106.886 E24.42535
G1 X82.989 Y104.722 E24.50294
G1 X81.862 Y102.424 E24.58080
G1 X80.979 Y100.041 E24.65811
G1 X80.340 Y97.572 E24.73570
G1 X79.953 Y95.052 E24.81328
G1 X79.823 Y92.504 E24.89087
G1 X79.953 Y89.948 E24.96873
G1 X80.340 Y87.428 E25.04632
G1 X80.979 Y84.959 E25.12390
G1 X81.865 Y82.567 E25.20149
G1 X82.985 Y80.286 E25.27880
G1 X84.333 Y78.121 E25.35639
G1 X85.817 Y76.204 E25.43013
G1 X86.075 Y76.404 F15300.000
G1 X87.879 Y74.489 E25.51017 F810.000
G1 X89.789 Y72.849 E25.58675
G1 X91.855 Y71.411 E25.66333
G1 X94.056 Y70.190 E25.73991
G1 X96.370 Y69.197 E25.81649
G1 X98.771 Y68.443 E25.89307
G1 X101.237 Y67.937 E25.96965
G1 X103.741 Y67.682 E26.04623
G1 X106.259 Y67.682 E26.12280
G1 X108.708 Y67.931 E26.19769
G1 X111.229 Y68.443 E26.27595 F810.000
G1 X113.630 Y69.197 E26.35253
G1 X115.944 Y70.190 E26.42911
G1 X118.145 Y71.411 E26.50569
G1 X120.211 Y72.849 E26.58227
G1 X122.121 Y74.489 E26.65885
G1 X123.855 Y76.314 E26.73543
G1 X125.396 Y78.304 E26.81201
G1 X126.727 Y80.440 E26.88859
G1 X127.811 Y82.650 E26.96347
G1 X128.710 Y85.061 E27.04174
G1 X129.341 Y87.498 E27.11832
G1 X129.722 Y89.986 E27.19490
G1 X129.850 Y92.500 E27.27148
G1 X129.725 Y94.958 E27.34636
G1 X129.341 Y97.502 E27.42463
G1 X128.710 Y99.939 E27.50120
G1 X127.855 Y102.247 E27.57609
G1 X126.727 Y104.560 E27.65435
G1 X125.396 Y106.696 E27.73093
G1 X123.855 Y108.686 E27.80751
G1 X122.121 Y110.511 E27.88409
G1 X120.211 Y112.151 E27.96067
G1 X118.145 Y113.589 E28.03725
G1 X115.944 Y114.810 E28.11383
G1 X113.630 Y115.803 E28.19041
G1 X111.229 Y116.557 E28.26699
G1 X108.763 Y117.063 E28.34357
G1 X106.259 Y117.318 E28.42015
G1 X103.741 Y117.318 E28.49673
G1 X101.237 Y117.063 E28.57331
G1 X98.771 Y116.557 E28.64988
G1 X96.370 Y115.803 E28.72646
G1 X94.107 Y114.832 E28.80135
G1 X91.855 Y113.589 E28.87961
G1 X89.789 Y112.151 E28.95619
G1 X87.879 Y110.511 E29.03277
G1 X86.145 Y108.686 E29.10935
G1 X84.604 Y106.696 E29.18593
G1 X83.273 Y104.560 E29.26251
G1 X82.164 Y102.300 E29.33909
G1 X81.290 Y99.939 E29.41567
G1 X80.659 Y97.502 E29.49225
G1 X80.286 Y95.069 E29.56713
G1 X80.150 Y92.500 E29.64540
G1 X80.278 Y89.986 E29.72198
G1 X80.659 Y87.498 E29.79856
G1 X81.290 Y85.061 E29.87514
G1 X82.164 Y82.700 E29.95171
G1 X83.273 Y80.440 E30.02829
G1 X84.604 Y78.304 E30.10487
G1 X86.047 Y76.440 E30.17660
G1 X86.375 Y76.413 F15300.000
G1 X86.289 Y76.626 F15300.000
G1 X86.377 Y76.513 E30.18098 F810.000
G1 X88.090 Y74.711 E30.25662
G1 X89.976 Y73.091 E30.33226
G1 X92.017 Y71.671 E30.40789
G1 X94.191 Y70.464 E30.48353
