; generated by Slic3r 1.2.5 on 2015-03-08 at 11:01:01

; external perimeters extrusion width = 0.30mm
; perimeters extrusion width = 0.40mm
; infill extrusion width = 0.40mm
; solid infill extrusion width = 0.40mm
; top infill extrusion width = 0.40mm
; support material extrusion width = 0.30mm

M107
M190 S45 ; set bed temperature
M104 S220 ; set temperature
G28 ; home all axes
G92 E0;
G1 E1 F1200 ;
G92 E0 ;
M109 S220 ; wait for temperature to be reached
G21 ; set units to millimeters
G90 ; use absolute coordinates
M82 ; use absolute distances for extrusion
G92 E0
G1 E-0.70000 F600.00000
G92 E0
G1 Z0.200 F15300.000
G1 X71.644 Y39.315 F15300.000
G1 E0.71000 F600.00000
G1 X72.197 Y38.356 E0.74255 F990.000
G1 X72.498 Y37.927 E0.75792
G1 X73.209 Y37.079 E0.79046
G1 X73.579 Y36.709 E0.80583
G1 X74.427 Y35.997 E0.83837
G1 X74.856 Y35.697 E0.85375
G1 X75.815 Y35.144 E0.88629
G1 X76.289 Y34.923 E0.90166
G1 X77.330 Y34.544 E0.93420
G1 X77.835 Y34.409 E0.94958
G1 X78.925 Y34.216 E0.98212
G1 X79.446 Y34.171 E0.99749
G1 X80.000 Y34.147 E1.01377
G1 X130.000 Y34.147 E2.48316
G1 X130.554 Y34.171 E2.49945
G1 X131.075 Y34.216 E2.51482 F990.000
G1 X132.165 Y34.409 E2.54736
G1 X132.670 Y34.544 E2.56273
G1 X133.711 Y34.923 E2.59528
G1 X134.170 Y35.137 E2.61015
G1 X135.144 Y35.698 E2.64319
G1 X135.573 Y35.997 E2.65856
G1 X136.421 Y36.709 E2.69110
G1 X136.791 Y37.079 E2.70649
G1 X137.503 Y37.927 E2.73902
G1 X137.802 Y38.356 E2.75439
G1 X138.356 Y39.315 E2.78693
G1 X138.577 Y39.789 E2.80230
G1 X138.956 Y40.830 E2.83485
G1 X139.091 Y41.335 E2.85021
G1 X139.284 Y42.425 E2.88276
G1 X139.353 Y43.500 E2.91441
G1 X139.353 Y144.500 E5.88257
G1 X138.957 Y146.710 E5.94857
G1 X137.816 Y148.644 E6.01456
G1 X136.073 Y150.061 E6.08055
G1 X133.000 Y150.853 E6.17382
G1 X77.000 Y150.853 E7.81953
G1 X74.790 Y150.457 E7.88552
G1 X72.856 Y149.316 E7.95152
G1 X71.439 Y147.573 E8.01751
G1 X70.647 Y144.500 E8.11078
G1 X70.647 Y43.500 E11.07894
G1 X70.716 Y42.425 E11.11061
G1 X70.909 Y41.335 E11.14314
G1 X71.044 Y40.829 E11.15851
G1 X71.423 Y39.789 E11.19105
G1 X71.625 Y39.356 E11.20509
G1 E10.50509 F600.00000
G92 E0
G1 X80.169 Y123.122 F15300.000
G1 E0.71000 F600.00000
G1 X80.500 Y123.093 E0.71977 F900.000
G1 X80.831 Y123.122 E0.72954
G1 X81.152 Y123.208 E0.73931 F900.000
G1 X81.453 Y123.348 E0.74908
G1 X81.726 Y123.539 E0.75885
G1 X81.961 Y123.774 E0.76861
G1 X82.152 Y124.047 E0.77838
G1 X82.292 Y124.348 E0.78815
G1 X82.378 Y124.669 E0.79792
G1 X82.407 Y125.000 E0.80769
G1 X82.378 Y125.331 E0.81746
G1 X82.292 Y125.652 E0.82723
G1 X82.152 Y125.953 E0.83700
G1 X81.961 Y126.226 E0.84676
G1 X81.726 Y126.461 E0.85653
G1 X81.453 Y126.652 E0.86630
G1 X81.152 Y126.792 E0.87607
G1 X80.831 Y126.878 E0.88584
G1 X80.500 Y126.907 E0.89561
G1 X80.169 Y126.878 E0.90538
G1 X79.848 Y126.792 E0.91515
G1 X79.546 Y126.652 E0.92491
G1 X79.274 Y126.461 E0.93468
G1 X79.039 Y126.226 E0.94445
G1 X78.848 Y125.953 E0.95422
G1 X78.708 Y125.652 E0.96399
G1 X78.622 Y125.331 E0.97376
G1 X78.593 Y125.000 E0.98353
G1 X78.622 Y124.669 E0.99330
G1 X78.708 Y124.348 E1.00307
G1 X78.849 Y124.046 E1.01283
G1 X79.039 Y123.774 E1.02260
G1 X79.274 Y123.539 E1.03237
G1 X79.547 Y123.348 E1.04214
G1 X79.848 Y123.208 E1.05191
G1 X80.125 Y123.134 E1.06035
G1 X80.204 Y123.428 F15300.000
G1 X80.222 Y123.424 E1.06089 F900.000
G1 X80.500 Y123.399 E1.06909 F900.000
G1 X80.778 Y123.424 E1.07729
G1 X81.047 Y123.496 E1.08549
G1 X81.300 Y123.614 E1.09369
G1 X81.529 Y123.774 E1.10189
G1 X81.726 Y123.971 E1.11009
G1 X81.886 Y124.200 E1.11829
G1 X82.004 Y124.453 E1.12649
G1 X82.076 Y124.722 E1.13469
G1 X82.101 Y125.000 E1.14288
G1 X82.076 Y125.278 E1.15108
G1 X82.004 Y125.547 E1.15928
G1 X81.886 Y125.800 E1.16748
G1 X81.726 Y126.029 E1.17568
G1 X81.529 Y126.226 E1.18388
G1 X81.300 Y126.386 E1.19208
G1 X81.047 Y126.504 E1.20028
G1 X80.778 Y126.576 E1.20848
G1 X80.500 Y126.601 E1.21668
G1 X80.222 Y126.576 E1.22488
G1 X79.953 Y126.504 E1.23307
G1 X79.700 Y126.386 E1.24127
G1 X79.471 Y126.226 E1.24947
G1 X79.274 Y126.029 E1.25767
G1 X79.114 Y125.800 E1.26587
G1 X78.996 Y125.547 E1.27407
G1 X78.924 Y125.278 E1.28227
G1 X78.899 Y125.000 E1.29047
G1 X78.924 Y124.722 E1.29867
G1 X78.996 Y124.453 E1.30687
G1 X79.114 Y124.200 E1.31507
G1 X79.274 Y123.971 E1.32327
G1 X79.471 Y123.774 E1.33146
G1 X79.700 Y123.614 E1.33966
G1 X79.953 Y123.496 E1.34786
G1 X80.161 Y123.440 E1.35420
G1 X80.209 Y123.411 F15300.000
G1 X83.971 Y116.281 F15300.000
G1 X83.678 Y116.076 E1.36474 F900.000
G1 X83.424 Y115.822 E1.37527
G1 X83.219 Y115.529 E1.38581
G1 X83.067 Y115.204 E1.39635
G1 X82.974 Y114.857 E1.40689
G1 X82.943 Y114.500 E1.41742
G1 X82.974 Y114.143 E1.42796
G1 X83.067 Y113.796 E1.43850
G1 X83.219 Y113.472 E1.44903
G1 X83.424 Y113.178 E1.45957
G1 X83.678 Y112.924 E1.47011
G1 X83.972 Y112.719 E1.48065
G1 X84.296 Y112.567 E1.49118
G1 X84.643 Y112.474 E1.50172
G1 X85.049 Y112.447 E1.51368
G1 X85.357 Y112.474 E1.52278 F900.000
G1 X85.703 Y112.567 E1.53331
G1 X86.029 Y112.719 E1.54385
G1 X86.322 Y112.924 E1.55439
G1 X86.576 Y113.178 E1.56492
G1 X86.781 Y113.471 E1.57546
G1 X86.933 Y113.796 E1.58600
G1 X87.026 Y114.143 E1.59654
G1 X87.057 Y114.500 E1.60707
G1 X87.026 Y114.857 E1.61761
G1 X86.933 Y115.204 E1.62815
G1 X86.781 Y115.528 E1.63868
G1 X86.541 Y115.857 E1.65065
G1 X86.322 Y116.076 E1.65974
G1 X86.028 Y116.281 E1.67028
G1 X85.704 Y116.433 E1.68081
G1 X85.357 Y116.526 E1.69135
G1 X85.000 Y116.557 E1.70189
G1 X84.643 Y116.526 E1.71243
G1 X84.296 Y116.433 E1.72296
G1 X84.012 Y116.300 E1.73218
G1 X84.141 Y116.024 F15300.000
G1 X83.875 Y115.841 E1.74168 F900.000
G1 X83.659 Y115.625 E1.75064
G1 X83.484 Y115.375 E1.75961
G1 X83.355 Y115.099 E1.76858
G1 X83.276 Y114.804 E1.77755
G1 X83.249 Y114.500 E1.78651
G1 X83.276 Y114.196 E1.79548
G1 X83.355 Y113.901 E1.80445
G1 X83.484 Y113.625 E1.81341
G1 X83.659 Y113.375 E1.82238
G1 X83.875 Y113.159 E1.83135
G1 X84.125 Y112.984 E1.84032
G1 X84.401 Y112.855 E1.84928
G1 X84.718 Y112.774 E1.85890
G1 X85.000 Y112.749 E1.86721 F900.000
G1 X85.304 Y112.776 E1.87618
G1 X85.599 Y112.855 E1.88515
G1 X85.875 Y112.984 E1.89411
G1 X86.125 Y113.159 E1.90308
G1 X86.341 Y113.375 E1.91205
G1 X86.516 Y113.625 E1.92102
G1 X86.651 Y113.923 E1.93063
G1 X86.724 Y114.196 E1.93894
G1 X86.751 Y114.500 E1.94791
G1 X86.724 Y114.804 E1.95688
G1 X86.645 Y115.099 E1.96584
G1 X86.516 Y115.375 E1.97481
G1 X86.341 Y115.625 E1.98378
G1 X86.125 Y115.841 E1.99275
G1 X85.875 Y116.016 E2.00171
G1 X85.577 Y116.151 E2.01133
G1 X85.304 Y116.224 E2.01964
G1 X85.000 Y116.251 E2.02861
G1 X84.696 Y116.224 E2.03758
G1 X84.401 Y116.145 E2.04654
G1 X84.182 Y116.043 E2.05365
G1 X83.878 Y116.168 F15300.000
G1 E1.35365 F600.00000
G92 E0
G1 X93.774 Y105.061 F15300.000
G1 E0.71000 F600.00000
G1 X93.539 Y104.826 E0.71977 F900.000
G1 X93.348 Y104.553 E0.72954
G1 X93.196 Y104.206 E0.74071
G1 X93.122 Y103.931 E0.74906
G1 X93.093 Y103.600 E0.75883
G1 X93.122 Y103.269 E0.76860
G1 X93.208 Y102.948 E0.77836
G1 X93.349 Y102.646 E0.78813
G1 X93.539 Y102.374 E0.79790
G1 X93.774 Y102.139 E0.80767
G1 X94.047 Y101.948 E0.81744
G1 X94.348 Y101.808 E0.82721
G1 X94.669 Y101.722 E0.83698
G1 X95.048 Y101.697 E0.84815
G1 X95.331 Y101.722 E0.85649 F900.000
G1 X95.652 Y101.808 E0.86626
G1 X95.953 Y101.948 E0.87603
G1 X96.260 Y102.173 E0.88720
G1 X96.461 Y102.374 E0.89555
G1 X96.652 Y102.647 E0.90532
G1 X96.792 Y102.948 E0.91509
G1 X96.878 Y103.269 E0.92486
G1 X96.907 Y103.600 E0.93463
G1 X96.878 Y103.931 E0.94440
G1 X96.792 Y104.252 E0.95416
G1 X96.651 Y104.554 E0.96393
G1 X96.461 Y104.826 E0.97370
G1 X96.226 Y105.061 E0.98347
G1 X95.953 Y105.252 E0.99324
G1 X95.652 Y105.392 E1.00301
G1 X95.331 Y105.478 E1.01278
G1 X95.000 Y105.507 E1.02255
G1 X94.669 Y105.478 E1.03231
G1 X94.348 Y105.392 E1.04208
G1 X94.047 Y105.252 E1.05185
G1 X93.811 Y105.087 E1.06030
G1 X93.986 Y104.837 F15300.000
G1 X93.774 Y104.629 E1.06903 F900.000
G1 X93.614 Y104.400 E1.07723
G1 X93.496 Y104.147 E1.08543
G1 X93.424 Y103.878 E1.09363
G1 X93.399 Y103.600 E1.10182
G1 X93.424 Y103.322 E1.11002
G1 X93.496 Y103.053 E1.11822
G1 X93.614 Y102.800 E1.12642
G1 X93.774 Y102.571 E1.13462
G1 X93.971 Y102.374 E1.14282
G1 X94.200 Y102.214 E1.15102
G1 X94.453 Y102.096 E1.15922
G1 X94.744 Y102.022 E1.16804
G1 X95.000 Y101.999 E1.17561 F900.000
G1 X95.278 Y102.024 E1.18381
G1 X95.547 Y102.096 E1.19201
G1 X95.800 Y102.214 E1.20021
G1 X96.029 Y102.374 E1.20840
G1 X96.226 Y102.571 E1.21660
G1 X96.386 Y102.800 E1.22480
G1 X96.504 Y103.053 E1.23300
G1 X96.576 Y103.322 E1.24120
G1 X96.601 Y103.600 E1.24940
G1 X96.576 Y103.878 E1.25760
G1 X96.504 Y104.147 E1.26580
G1 X96.386 Y104.400 E1.27400
G1 X96.226 Y104.629 E1.28220
G1 X96.029 Y104.826 E1.29040
G1 X95.800 Y104.986 E1.29860
G1 X95.547 Y105.104 E1.30679
G1 X95.278 Y105.176 E1.31499
G1 X95.000 Y105.201 E1.32319
G1 X94.722 Y105.176 E1.33139
G1 X94.453 Y105.104 E1.33959
G1 X94.200 Y104.986 E1.34779
G1 X94.023 Y104.862 E1.35413
G1 X93.705 Y104.932 F15300.000
G1 E0.65413 F600.00000
G92 E0
G1 X85.704 Y86.433 F15300.000
G1 E0.71000 F600.00000
G1 X85.357 Y86.526 E0.72054 F900.000
G1 X85.000 Y86.557 E0.73108
G1 X84.643 Y86.526 E0.74161
G1 X84.296 Y86.433 E0.75215
G1 X83.972 Y86.281 E0.76269
G1 X83.643 Y86.041 E0.77465
G1 X83.424 Y85.822 E0.78374
G1 X83.219 Y85.529 E0.79428
G1 X83.067 Y85.204 E0.80482
G1 X82.974 Y84.857 E0.81535
G1 X82.943 Y84.500 E0.82589
G1 X82.974 Y84.143 E0.83643
G1 X83.067 Y83.796 E0.84697
G1 X83.219 Y83.472 E0.85750
G1 X83.424 Y83.178 E0.86804
G1 X83.678 Y82.924 E0.87858
G1 X83.972 Y82.719 E0.88912
G1 X84.296 Y82.567 E0.89965
G1 X84.643 Y82.474 E0.91019
G1 X85.049 Y82.447 E0.92215
G1 X85.357 Y82.474 E0.93125 F900.000
G1 X85.704 Y82.567 E0.94178
G1 X86.028 Y82.719 E0.95232
G1 X86.322 Y82.924 E0.96285
G1 X86.576 Y83.178 E0.97339
G1 X86.781 Y83.471 E0.98393
G1 X86.933 Y83.796 E0.99447
G1 X87.026 Y84.143 E1.00500
G1 X87.057 Y84.500 E1.01554
G1 X87.026 Y84.857 E1.02608
G1 X86.933 Y85.204 E1.03662
G1 X86.781 Y85.528 E1.04715
G1 X86.576 Y85.822 E1.05769
G1 X86.322 Y86.076 E1.06823
G1 X86.028 Y86.281 E1.07877
G1 X85.744 Y86.414 E1.08798
G1 X85.615 Y86.137 F15300.000
G1 X85.304 Y86.224 E1.09748 F900.000
G1 X85.000 Y86.251 E1.10644
G1 X84.696 Y86.224 E1.11541
G1 X84.401 Y86.145 E1.12438
G1 X84.125 Y86.016 E1.13335
G1 X83.859 Y85.825 E1.14296
G1 X83.659 Y85.625 E1.15127
G1 X83.484 Y85.375 E1.16024
G1 X83.355 Y85.099 E1.16921
G1 X83.276 Y84.804 E1.17818
G1 X83.249 Y84.500 E1.18714
G1 X83.276 Y84.196 E1.19611
G1 X83.355 Y83.901 E1.20508
G1 X83.484 Y83.625 E1.21405
G1 X83.659 Y83.375 E1.22301
G1 X83.875 Y83.159 E1.23198
G1 X84.125 Y82.984 E1.24095
G1 X84.401 Y82.855 E1.24992
G1 X84.718 Y82.774 E1.25953
G1 X85.000 Y82.749 E1.26784 F900.000
G1 X85.304 Y82.776 E1.27681
G1 X85.599 Y82.855 E1.28578
G1 X85.875 Y82.984 E1.29474
G1 X86.125 Y83.159 E1.30371
G1 X86.341 Y83.375 E1.31268
G1 X86.516 Y83.625 E1.32165
G1 X86.645 Y83.901 E1.33061
G1 X86.724 Y84.196 E1.33958
G1 X86.751 Y84.500 E1.34855
G1 X86.724 Y84.804 E1.35752
G1 X86.645 Y85.099 E1.36648
G1 X86.516 Y85.375 E1.37545
G1 X86.341 Y85.625 E1.38442
G1 X86.125 Y85.841 E1.39339
G1 X85.875 Y86.016 E1.40235
G1 X85.656 Y86.118 E1.40946
G1 X85.557 Y86.431 F15300.000
G1 E0.70946 F600.00000
G92 E0
G1 X81.023 Y68.827 F15300.000
G1 E0.71000 F600.00000
G1 X80.831 Y68.878 E0.71584 F900.000
G1 X80.500 Y68.907 E0.72561
G1 X80.169 Y68.878 E0.73537
G1 X79.848 Y68.792 E0.74514
G1 X79.547 Y68.652 E0.75491
G1 X79.274 Y68.461 E0.76468
G1 X79.039 Y68.226 E0.77445
G1 X78.848 Y67.953 E0.78422
G1 X78.708 Y67.652 E0.79399
G1 X78.622 Y67.331 E0.80376
G1 X78.593 Y67.000 E0.81352
G1 X78.622 Y66.669 E0.82329
G1 X78.708 Y66.348 E0.83306
G1 X78.848 Y66.046 E0.84283
G1 X79.039 Y65.774 E0.85260
G1 X79.274 Y65.539 E0.86237
G1 X79.547 Y65.348 E0.87214
G1 X79.848 Y65.208 E0.88191
G1 X80.169 Y65.122 E0.89167
G1 X80.500 Y65.093 E0.90144
G1 X80.831 Y65.122 E0.91121
G1 X81.152 Y65.208 E0.92098 F900.000
G1 X81.454 Y65.349 E0.93075
G1 X81.726 Y65.539 E0.94052
G1 X81.961 Y65.774 E0.95029
G1 X82.152 Y66.047 E0.96006
G1 X82.292 Y66.348 E0.96983
G1 X82.378 Y66.669 E0.97959
G1 X82.407 Y67.000 E0.98936
G1 X82.378 Y67.331 E0.99913
G1 X82.292 Y67.652 E1.00890
G1 X82.152 Y67.953 E1.01867
G1 X81.961 Y68.226 E1.02844
G1 X81.726 Y68.461 E1.03821
G1 X81.453 Y68.652 E1.04798
G1 X81.066 Y68.815 E1.06032
G1 X80.987 Y68.520 F15300.000
G1 X80.778 Y68.576 E1.06670 F900.000
G1 X80.500 Y68.601 E1.07490
G1 X80.222 Y68.576 E1.08310
G1 X79.953 Y68.504 E1.09129
G1 X79.700 Y68.386 E1.09949
G1 X79.471 Y68.226 E1.10769
G1 X79.274 Y68.029 E1.11589
G1 X79.114 Y67.800 E1.12409
G1 X78.996 Y67.547 E1.13229
G1 X78.924 Y67.278 E1.14049
G1 X78.899 Y67.000 E1.14869
G1 X78.924 Y66.722 E1.15689
G1 X78.996 Y66.453 E1.16509
G1 X79.114 Y66.200 E1.17329
G1 X79.274 Y65.971 E1.18149
G1 X79.471 Y65.774 E1.18968
G1 X79.700 Y65.614 E1.19788
G1 X79.953 Y65.496 E1.20608
G1 X80.222 Y65.424 E1.21428
G1 X80.500 Y65.399 E1.22248 F900.000
G1 X80.778 Y65.424 E1.23068
G1 X81.047 Y65.496 E1.23888
G1 X81.300 Y65.614 E1.24708
G1 X81.529 Y65.774 E1.25528
G1 X81.726 Y65.971 E1.26348
G1 X81.886 Y66.200 E1.27168
G1 X82.004 Y66.453 E1.27987
G1 X82.076 Y66.722 E1.28807
G1 X82.101 Y67.000 E1.29627
G1 X82.076 Y67.278 E1.30447
G1 X82.004 Y67.547 E1.31267
G1 X81.886 Y67.800 E1.32087
G1 X81.726 Y68.029 E1.32907
G1 X81.529 Y68.226 E1.33727
G1 X81.300 Y68.386 E1.34547
G1 X81.031 Y68.508 E1.35416
G1 X80.941 Y68.732 F15300.000
G1 X118.748 Y49.353 F15300.000
G1 X118.608 Y49.052 E1.36393 F900.000
G1 X118.522 Y48.731 E1.37370
G1 X118.493 Y48.400 E1.38347
G1 X118.522 Y48.069 E1.39324
G1 X118.608 Y47.748 E1.40300
G1 X118.748 Y47.447 E1.41277
G1 X118.973 Y47.140 E1.42394
G1 X119.174 Y46.939 E1.43229
G1 X119.447 Y46.748 E1.44206
G1 X119.748 Y46.608 E1.45183
G1 X120.069 Y46.522 E1.46160
G1 X120.448 Y46.497 E1.47277
G1 X120.731 Y46.522 E1.48112 F900.000
G1 X121.052 Y46.608 E1.49089
G1 X121.353 Y46.748 E1.50066
G1 X121.626 Y46.939 E1.51043
G1 X121.861 Y47.174 E1.52019
G1 X122.052 Y47.447 E1.52996
G1 X122.192 Y47.748 E1.53973
G1 X122.278 Y48.069 E1.54950
G1 X122.307 Y48.400 E1.55927
G1 X122.278 Y48.731 E1.56904
G1 X122.192 Y49.052 E1.57881
G1 X122.052 Y49.353 E1.58858
G1 X121.861 Y49.626 E1.59834
G1 X121.626 Y49.861 E1.60811
G1 X121.353 Y50.052 E1.61788
G1 X121.052 Y50.192 E1.62765
G1 X120.731 Y50.278 E1.63742
G1 X120.400 Y50.307 E1.64719
G1 X120.069 Y50.278 E1.65696
G1 X119.748 Y50.192 E1.66673
G1 X119.446 Y50.051 E1.67650
G1 X119.174 Y49.861 E1.68626
G1 X118.939 Y49.626 E1.69603
G1 X118.774 Y49.390 E1.70448
G1 X119.024 Y49.215 F15300.000
G1 X118.896 Y48.947 E1.71321 F900.000
G1 X118.824 Y48.678 E1.72141
G1 X118.799 Y48.400 E1.72961
G1 X118.824 Y48.122 E1.73781
G1 X118.896 Y47.853 E1.74600
G1 X119.014 Y47.600 E1.75420
G1 X119.189 Y47.356 E1.76303
G1 X119.371 Y47.174 E1.77059
G1 X119.600 Y47.014 E1.77879
G1 X119.853 Y46.896 E1.78699
G1 X120.144 Y46.822 E1.79581
G1 X120.400 Y46.799 E1.80338 F900.000
G1 X120.678 Y46.824 E1.81158
G1 X120.947 Y46.896 E1.81978
G1 X121.200 Y47.014 E1.82798
G1 X121.429 Y47.174 E1.83618
G1 X121.626 Y47.371 E1.84438
G1 X121.786 Y47.600 E1.85258
G1 X121.904 Y47.853 E1.86077
G1 X121.976 Y48.122 E1.86897
G1 X122.001 Y48.400 E1.87717
G1 X121.976 Y48.678 E1.88537
G1 X121.904 Y48.947 E1.89357
G1 X121.786 Y49.200 E1.90177
G1 X121.626 Y49.429 E1.90997
G1 X121.429 Y49.626 E1.91817
G1 X121.200 Y49.786 E1.92637
G1 X120.947 Y49.904 E1.93457
G1 X120.678 Y49.976 E1.94277
G1 X120.379 Y49.999 E1.95159
G1 X120.122 Y49.976 E1.95916
G1 X119.853 Y49.904 E1.96735
G1 X119.600 Y49.786 E1.97555
G1 X119.371 Y49.626 E1.98375
G1 X119.174 Y49.429 E1.99195
G1 X119.050 Y49.252 E1.99829
G1 X118.727 Y49.209 F15300.000
G1 X128.547 Y65.348 F15300.000
G1 X128.848 Y65.208 E2.00806 F900.000
G1 X129.169 Y65.122 E2.01783
G1 X129.500 Y65.093 E2.02760
G1 X129.831 Y65.122 E2.03737
G1 X130.152 Y65.208 E2.04713 F900.000
G1 X130.453 Y65.348 E2.05690
G1 X130.726 Y65.539 E2.06667
G1 X130.961 Y65.774 E2.07644
G1 X131.152 Y66.047 E2.08621
G1 X131.292 Y66.348 E2.09598
G1 X131.378 Y66.669 E2.10575
G1 X131.407 Y67.000 E2.11552
G1 X131.378 Y67.331 E2.12529
G1 X131.292 Y67.652 E2.13505
G1 X131.152 Y67.953 E2.14482
G1 X130.961 Y68.226 E2.15459
