; generated by Slic3r 1.2.4 on 2015-01-05 at 22:16:45

; external perimeters extrusion width = 0.30mm
; perimeters extrusion width = 0.40mm
; infill extrusion width = 0.40mm
; solid infill extrusion width = 0.40mm
; top infill extrusion width = 0.40mm
; support material extrusion width = 0.30mm

M190 S45 ; set bed temperature
M104 S220 ; set temperature
G28 ; home all axes
G92 E0;
G1 E1 F1200 ;
G92 E0 ;
M109 S220 ; wait for temperature to be reached
G21 ; set units to millimeters
G90 ; use absolute coordinates
M82 ; use absolute distances for extrusion
G92 E0
G1 E-0.70000 F600.00000
G92 E0
G1 Z0.200 F15300.000
G1 X81.975 Y71.228 F15300.000
G1 E0.71000 F600.00000
G1 X82.415 Y70.762 E0.72948 F900.000
G1 X84.233 Y69.019 E0.80611
G1 X84.717 Y68.599 E0.82559
G1 X86.702 Y67.048 E0.90223
G1 X87.225 Y66.680 E0.92170
G1 X89.356 Y65.336 E0.99834
G1 X89.914 Y65.022 E1.01782
G1 X92.169 Y63.899 E1.09446
G1 X92.756 Y63.643 E1.11393
G1 X95.113 Y62.753 E1.19057
G1 X95.722 Y62.557 E1.21005
G1 X98.157 Y61.909 E1.28669
G1 X99.136 Y61.727 E1.31700
G1 X99.952 Y61.674 E1.34187
G1 X110.048 Y61.674 E1.64900
G1 X110.865 Y61.727 E1.67390
G1 X111.843 Y61.909 E1.70419 F900.000
G1 X114.278 Y62.557 E1.78083
G1 X114.887 Y62.753 E1.80030
G1 X117.244 Y63.643 E1.87694
G1 X117.831 Y63.899 E1.89641
G1 X120.086 Y65.022 E1.97305
G1 X120.644 Y65.336 E1.99253
G1 X122.775 Y66.680 E2.06917
G1 X123.298 Y67.048 E2.08864
G1 X125.283 Y68.599 E2.16528
G1 X125.767 Y69.019 E2.18476
G1 X127.540 Y70.718 E2.25948
G1 X128.025 Y71.228 E2.28087
G1 X129.658 Y73.145 E2.35751
G1 X130.048 Y73.653 E2.37698
G1 X131.481 Y75.725 E2.45362
G1 X131.818 Y76.270 E2.47310
G1 X133.035 Y78.475 E2.54974
G1 X133.315 Y79.051 E2.56921
G1 X134.304 Y81.368 E2.64585
G1 X134.525 Y81.969 E2.66533
G1 X135.275 Y84.374 E2.74196
G1 X135.435 Y84.994 E2.76144
G1 X135.939 Y87.462 E2.83808
G1 X136.036 Y88.095 E2.85755
G1 X136.289 Y90.601 E2.93419
G1 X136.322 Y91.240 E2.95367
G1 X136.322 Y93.760 E3.03031
G1 X136.289 Y94.399 E3.04978
G1 X136.036 Y96.905 E3.12642
G1 X135.939 Y97.538 E3.14590
G1 X135.435 Y100.007 E3.22254
G1 X135.275 Y100.626 E3.24201
G1 X134.525 Y103.031 E3.31865
G1 X134.304 Y103.632 E3.33812
G1 X133.315 Y105.949 E3.41476
G1 X133.035 Y106.525 E3.43424
G1 X131.818 Y108.731 E3.51088
G1 X131.481 Y109.275 E3.53035
G1 X130.048 Y111.347 E3.60699
G1 X129.658 Y111.855 E3.62647
G1 X128.024 Y113.772 E3.70311
G1 X127.585 Y114.238 E3.72258
G1 X125.767 Y115.981 E3.79922
G1 X125.283 Y116.400 E3.81869
G1 X123.298 Y117.952 E3.89533
G1 X122.775 Y118.320 E3.91481
G1 X120.697 Y119.631 E3.98954
G1 X120.086 Y119.978 E4.01092
G1 X117.830 Y121.101 E4.08757
G1 X117.244 Y121.357 E4.10704
G1 X114.887 Y122.247 E4.18368
G1 X114.278 Y122.443 E4.20315
G1 X111.843 Y123.091 E4.27979
G1 X110.865 Y123.273 E4.31007
G1 X110.048 Y123.326 E4.33497
G1 X99.952 Y123.326 E4.64211
G1 X98.974 Y123.252 E4.67194
G1 X98.157 Y123.091 E4.69729
G1 X95.722 Y122.443 E4.77393
G1 X95.113 Y122.247 E4.79340
G1 X92.756 Y121.357 E4.87004
G1 X92.169 Y121.101 E4.88952
G1 X89.914 Y119.978 E4.96616
G1 X89.356 Y119.664 E4.98563
G1 X87.225 Y118.320 E5.06227
G1 X86.702 Y117.952 E5.08175
G1 X84.717 Y116.401 E5.15838
G1 X84.233 Y115.981 E5.17786
G1 X82.415 Y114.238 E5.25450
G1 X81.975 Y113.772 E5.27397
G1 X80.342 Y111.854 E5.35062
G1 X79.952 Y111.347 E5.37009
G1 X78.519 Y109.275 E5.44673
G1 X78.182 Y108.730 E5.46620
G1 X76.996 Y106.580 E5.54092
G1 X76.685 Y105.949 E5.56231
G1 X75.696 Y103.632 E5.63895
G1 X75.475 Y103.031 E5.65843
G1 X74.725 Y100.626 E5.73507
G1 X74.565 Y100.006 E5.75454
G1 X74.061 Y97.538 E5.83118
G1 X73.964 Y96.905 E5.85066
G1 X73.717 Y94.462 E5.92538
G1 X73.678 Y93.760 E5.94677
G1 X73.678 Y91.240 E6.02341
G1 X73.711 Y90.601 E6.04288
G1 X73.964 Y88.095 E6.11952
G1 X74.061 Y87.462 E6.13900
G1 X74.565 Y84.994 E6.21564
G1 X74.725 Y84.374 E6.23511
G1 X75.456 Y82.029 E6.30983
G1 X75.696 Y81.368 E6.33122
G1 X76.685 Y79.051 E6.40786
G1 X76.965 Y78.475 E6.42734
G1 X78.182 Y76.270 E6.50397
G1 X78.519 Y75.725 E6.52345
G1 X79.952 Y73.653 E6.60009
G1 X80.342 Y73.145 E6.61957
G1 X81.946 Y71.262 E6.69483
G1 E5.99483 F600.00000
G92 E0
G1 X85.572 Y74.351 F15300.000
G1 E0.71000 F600.00000
G1 X87.619 Y72.377 E0.79652 F900.000
G1 X89.732 Y70.730 E0.87804
G1 X92.001 Y69.304 E0.95955
G1 X94.401 Y68.113 E1.04106
G1 X96.833 Y67.195 E1.12014
G1 X99.433 Y66.498 E1.20202
G1 X99.940 Y66.436 E1.21757
G1 X100.358 Y66.460 E1.23032
G1 X100.644 Y66.517 E1.23917
G1 X101.039 Y66.653 E1.25190
G1 X101.409 Y66.852 E1.26465
G1 X101.741 Y67.107 E1.27739
G1 X102.027 Y67.413 E1.29014
G1 X102.321 Y67.874 E1.30679
G1 X102.476 Y68.264 E1.31954
G1 X102.546 Y68.546 E1.32837
G1 X102.588 Y68.930 E1.34015
G1 X102.590 Y71.673 E1.42358
G1 X102.632 Y72.152 E1.43821
G1 X102.748 Y72.586 E1.45188
G1 X102.927 Y72.964 E1.46462
G1 X103.150 Y73.282 E1.47642
G1 X103.468 Y73.600 E1.49010
G1 X103.812 Y73.838 E1.50284
G1 X104.193 Y74.013 E1.51558
G1 X104.598 Y74.118 E1.52831
G1 X105.015 Y74.152 E1.54105
G1 X105.432 Y74.113 E1.55379
G1 X105.807 Y74.013 E1.56559
G1 X106.188 Y73.838 E1.57833
G1 X106.556 Y73.580 E1.59201
G1 X106.850 Y73.282 E1.60474
G1 X107.073 Y72.964 E1.61655
G1 X107.263 Y72.557 E1.63022
G1 X107.368 Y72.152 E1.64296
G1 X107.409 Y71.688 E1.65712
G1 X107.410 Y68.994 E1.73907
G1 X107.433 Y68.673 E1.74888
G1 X107.524 Y68.263 E1.76164
G1 X107.739 Y67.760 E1.77828
G1 X107.973 Y67.413 E1.79103
G1 X108.166 Y67.196 E1.79987
G1 X108.485 Y66.924 E1.81262
G1 X108.844 Y66.708 E1.82536
G1 X109.233 Y66.552 E1.83811
G1 X109.642 Y66.460 E1.85085
G1 X110.189 Y66.442 E1.86750
G1 X110.567 Y66.498 E1.87915 F900.000
G1 X113.167 Y67.195 E1.96103
G1 X115.672 Y68.145 E2.04254
G1 X117.999 Y69.304 E2.12162
G1 X120.268 Y70.730 E2.20313
G1 X122.300 Y72.313 E2.28151
G1 X122.442 Y72.429 E2.28708
G1 X124.373 Y74.286 E2.36859
G1 X126.059 Y76.265 E2.44767
G1 X127.586 Y78.467 E2.52918
G1 X128.883 Y80.811 E2.61070
G1 X129.939 Y83.274 E2.69221
G1 X130.760 Y85.908 E2.77616
G1 X131.293 Y88.534 E2.85767
G1 X131.555 Y91.120 E2.93675
G1 X131.555 Y93.880 E3.02070
G1 X131.281 Y96.545 E3.10221
G1 X130.760 Y99.092 E3.18129
G1 X129.966 Y101.651 E3.26280
G1 X128.919 Y104.117 E3.34432
G1 X127.586 Y106.533 E3.42827
G1 X126.059 Y108.735 E3.50978
G1 X124.373 Y110.714 E3.58886
G1 X122.442 Y112.571 E3.67037
G1 X120.333 Y114.224 E3.75188
G1 X117.999 Y115.696 E3.83583
G1 X115.672 Y116.855 E3.91491
G1 X113.167 Y117.805 E3.99642
G1 X110.567 Y118.502 E4.07830
G1 X110.060 Y118.564 E4.09385
G1 X109.642 Y118.540 E4.10659
G1 X109.357 Y118.483 E4.11544
G1 X109.025 Y118.371 E4.12610
G1 X108.844 Y118.292 E4.13210
G1 X108.591 Y118.148 E4.14094
G1 X108.259 Y117.893 E4.15369
G1 X107.973 Y117.588 E4.16642
G1 X107.739 Y117.239 E4.17918
G1 X107.565 Y116.859 E4.19192
G1 X107.454 Y116.454 E4.20467
G1 X107.410 Y116.005 E4.21840
G1 X107.409 Y113.312 E4.30034
G1 X107.368 Y112.848 E4.31450
G1 X107.252 Y112.414 E4.32817
G1 X107.073 Y112.036 E4.34091
G1 X106.830 Y111.694 E4.35365
G1 X106.556 Y111.420 E4.36546
G1 X106.214 Y111.177 E4.37819
G1 X105.807 Y110.987 E4.39187
G1 X105.432 Y110.887 E4.40367
G1 X105.015 Y110.848 E4.41641
G1 X104.568 Y110.887 E4.43008
G1 X104.164 Y110.998 E4.44282
G1 X103.786 Y111.177 E4.45556
G1 X103.444 Y111.420 E4.46830
G1 X103.170 Y111.694 E4.48010
G1 X102.927 Y112.036 E4.49284
G1 X102.748 Y112.414 E4.50558
G1 X102.632 Y112.848 E4.51925
G1 X102.591 Y113.312 E4.53341
G1 X102.590 Y116.006 E4.61536
G1 X102.546 Y116.454 E4.62908
G1 X102.435 Y116.859 E4.64183
G1 X102.261 Y117.239 E4.65458
G1 X102.027 Y117.587 E4.66732
G1 X101.741 Y117.893 E4.68008
G1 X101.409 Y118.148 E4.69282
G1 X101.156 Y118.292 E4.70165
G1 X100.768 Y118.448 E4.71440
G1 X100.359 Y118.540 E4.72715
G1 X99.940 Y118.564 E4.73991
G1 X99.433 Y118.502 E4.75544
G1 X96.833 Y117.805 E4.83733
G1 X94.328 Y116.855 E4.91884
G1 X92.001 Y115.696 E4.99792
G1 X89.667 Y114.224 E5.08187
G1 X87.558 Y112.571 E5.16338
G1 X85.627 Y110.714 E5.24489
G1 X83.941 Y108.735 E5.32397
G1 X82.414 Y106.533 E5.40548
G1 X81.081 Y104.117 E5.48943
G1 X80.034 Y101.651 E5.57095
G1 X79.260 Y99.169 E5.65002
G1 X78.719 Y96.545 E5.73154
G1 X78.456 Y93.982 E5.80991
G1 X78.441 Y93.800 E5.81549
G1 X78.445 Y91.120 E5.89700
G1 X78.719 Y88.455 E5.97851
G1 X79.240 Y85.908 E6.05759
G1 X80.061 Y83.274 E6.14154
G1 X81.081 Y80.883 E6.22062
G1 X82.372 Y78.535 E6.30213
G1 X83.892 Y76.328 E6.38364
G1 X85.543 Y74.385 E6.46120
G1 X85.812 Y74.615 F15300.000
G1 X85.933 Y74.477 E6.46678 F900.000
G1 X87.844 Y72.650 E6.54721
G1 X89.928 Y71.024 E6.62764
G1 X92.166 Y69.616 E6.70807
G1 X94.534 Y68.441 E6.78850
G1 X96.950 Y67.529 E6.86703
G1 X99.513 Y66.843 E6.94775
G1 X99.943 Y66.790 E6.96094
G1 X100.304 Y66.810 E6.97194
G1 X100.561 Y66.861 E6.97992
G1 X100.903 Y66.979 E6.99092
G1 X101.221 Y67.152 E7.00193
G1 X101.507 Y67.373 E7.01293
G1 X101.754 Y67.637 E7.02394
G1 X102.002 Y68.027 E7.03798
G1 X102.137 Y68.362 E7.04899
G1 X102.200 Y68.617 E7.05695
G1 X102.235 Y68.952 E7.06721
G1 X102.237 Y71.688 E7.15046
G1 X102.282 Y72.214 E7.16649
G1 X102.415 Y72.707 E7.18205
G1 X102.605 Y73.115 E7.19573
G1 X102.878 Y73.510 E7.21035
G1 X103.240 Y73.872 E7.22591
G1 X103.635 Y74.145 E7.24053
G1 X104.072 Y74.346 E7.25515
G1 X104.506 Y74.462 E7.26883
G1 X104.985 Y74.507 E7.28345
G1 X105.464 Y74.468 E7.29807
G1 X105.928 Y74.346 E7.31269
G1 X106.392 Y74.130 E7.32825
G1 X106.784 Y73.852 E7.34287
G1 X107.102 Y73.534 E7.35655
G1 X107.380 Y73.142 E7.37117
G1 X107.596 Y72.678 E7.38673
G1 X107.718 Y72.214 E7.40135
G1 X107.762 Y71.704 E7.41692
G1 X107.763 Y69.002 E7.49912
G1 X107.784 Y68.716 E7.50784
G1 X107.863 Y68.362 E7.51886
G1 X108.045 Y67.938 E7.53290
G1 X108.246 Y67.637 E7.54390
G1 X108.420 Y67.442 E7.55187
G1 X108.696 Y67.208 E7.56288
G1 X109.006 Y67.022 E7.57388
G1 X109.439 Y66.860 E7.58793
G1 X109.796 Y66.798 E7.59893
G1 X110.057 Y66.790 E7.60690
G1 X110.487 Y66.843 E7.62009 F900.000
G1 X113.051 Y67.529 E7.70080
G1 X115.466 Y68.441 E7.77934
G1 X117.834 Y69.616 E7.85977
G1 X120.072 Y71.024 E7.94020
G1 X122.082 Y72.592 E8.01776
G1 X124.110 Y74.522 E8.10294
G1 X125.822 Y76.537 E8.18337
G1 X127.290 Y78.660 E8.26190
G1 X128.570 Y80.974 E8.34233
G1 X129.573 Y83.318 E8.41990
G1 X130.416 Y85.988 E8.50507
G1 X130.942 Y88.579 E8.58550
G1 X131.202 Y91.147 E8.66404
G1 X131.202 Y93.853 E8.74636
G1 X130.933 Y96.483 E8.82679
G1 X130.416 Y99.012 E8.90532
G1 X129.632 Y101.537 E8.98575
G1 X128.597 Y103.970 E9.06618
G1 X127.290 Y106.340 E9.14851
G1 X125.784 Y108.513 E9.22894
G1 X124.110 Y110.478 E9.30747
G1 X122.204 Y112.310 E9.38790
G1 X120.123 Y113.940 E9.46833
G1 X117.834 Y115.384 E9.55066
G1 X115.523 Y116.534 E9.62919
G1 X113.050 Y117.471 E9.70962
G1 X110.487 Y118.157 E9.79034
G1 X110.057 Y118.210 E9.80352
G1 X109.696 Y118.190 E9.81453
G1 X109.439 Y118.139 E9.82250
G1 X109.148 Y118.040 E9.83186
G1 X108.779 Y117.848 E9.84450
G1 X108.493 Y117.627 E9.85551
G1 X108.246 Y117.363 E9.86651
G1 X108.045 Y117.062 E9.87753
G1 X107.895 Y116.733 E9.88853
G1 X107.800 Y116.383 E9.89953
G1 X107.763 Y115.998 E9.91130
G1 X107.763 Y113.312 E9.99303
G1 X107.718 Y112.786 E10.00907
G1 X107.596 Y112.322 E10.02369
G1 X107.395 Y111.885 E10.03831
G1 X107.102 Y111.466 E10.05387
G1 X106.784 Y111.148 E10.06755
G1 X106.392 Y110.870 E10.08217
G1 X105.928 Y110.654 E10.09773
G1 X105.494 Y110.538 E10.11141
G1 X105.015 Y110.493 E10.12603
G1 X104.506 Y110.538 E10.14159
G1 X104.043 Y110.665 E10.15621
G1 X103.608 Y110.870 E10.17083
G1 X103.216 Y111.148 E10.18544
G1 X102.898 Y111.466 E10.19913
G1 X102.605 Y111.885 E10.21468
G1 X102.404 Y112.322 E10.22930
G1 X102.282 Y112.786 E10.24392
G1 X102.237 Y113.312 E10.25996
G1 X102.237 Y115.998 E10.34170
G1 X102.200 Y116.383 E10.35346
G1 X102.105 Y116.733 E10.36447
G1 X101.955 Y117.062 E10.37548
G1 X101.754 Y117.363 E10.38648
G1 X101.507 Y117.627 E10.39749
G1 X101.221 Y117.849 E10.40850
G1 X100.993 Y117.978 E10.41646
G1 X100.657 Y118.112 E10.42747
G1 X100.304 Y118.190 E10.43848
G1 X99.942 Y118.210 E10.44949
G1 X99.513 Y118.157 E10.46267
G1 X96.949 Y117.471 E10.54339
G1 X94.477 Y116.534 E10.62382
G1 X92.166 Y115.384 E10.70235
G1 X89.877 Y113.940 E10.78468
G1 X87.844 Y112.350 E10.86321
G1 X85.933 Y110.523 E10.94364
G1 X84.216 Y108.513 E11.02407
G1 X82.710 Y106.340 E11.10450
G1 X81.403 Y103.970 E11.18683
G1 X80.368 Y101.537 E11.26726
G1 X79.600 Y99.073 E11.34579
G1 X79.067 Y96.483 E11.42622
G1 X78.807 Y93.947 E11.50379
G1 X78.798 Y91.147 E11.58896
G1 X79.067 Y88.517 E11.66939
G1 X79.584 Y85.988 E11.74793
G1 X80.390 Y83.404 E11.83025
G1 X81.403 Y81.030 E11.90879
G1 X82.677 Y78.713 E11.98922
G1 X84.178 Y76.537 E12.06965
G1 X85.782 Y74.649 E12.14502
G1 X86.051 Y74.878 F15300.000
G1 X86.184 Y74.726 E12.15116 F900.000
G1 X88.068 Y72.923 E12.23050
G1 X90.124 Y71.318 E12.30985
G1 X92.332 Y69.928 E12.38920
G1 X94.668 Y68.768 E12.46854
G1 X97.066 Y67.862 E12.54654
G1 X99.592 Y67.187 E12.62609
G1 X99.945 Y67.143 E12.63691
G1 X100.250 Y67.159 E12.64618
G1 X100.479 Y67.205 E12.65328
G1 X100.766 Y67.305 E12.66254
G1 X101.033 Y67.451 E12.67181
G1 X101.274 Y67.638 E12.68108
G1 X101.481 Y67.862 E12.69034
G1 X101.649 Y68.116 E12.69961
G1 X101.774 Y68.394 E12.70888
G1 X101.853 Y68.688 E12.71815
G1 X101.882 Y68.973 E12.72687
G1 X101.884 Y71.704 E12.80994
G1 X101.933 Y72.275 E12.82739
G1 X102.081 Y72.829 E12.84483
G1 X102.313 Y73.319 E12.86133
G1 X102.606 Y73.738 E12.87689
G1 X103.012 Y74.144 E12.89433
G1 X103.458 Y74.453 E12.91083
G1 X103.950 Y74.679 E12.92733
G1 X104.444 Y74.812 E12.94290
G1 X104.985 Y74.862 E12.95940
G1 X105.525 Y74.817 E12.97590
G1 X106.050 Y74.679 E12.99240
G1 X106.569 Y74.437 E13.00984
G1 X106.988 Y74.144 E13.02540
G1 X107.374 Y73.762 E13.04191
G1 X107.687 Y73.319 E13.05841
G1 X107.929 Y72.800 E13.07584
G1 X108.067 Y72.275 E13.09234
G1 X108.116 Y71.719 E13.10932
G1 X108.116 Y69.009 E13.19178
G1 X108.135 Y68.758 E13.19941
G1 X108.203 Y68.461 E13.20869
G1 X108.351 Y68.116 E13.22012
G1 X108.519 Y67.862 E13.22939
G1 X108.675 Y67.688 E13.23649
G1 X108.908 Y67.492 E13.24575
G1 X109.169 Y67.336 E13.25502
G1 X109.453 Y67.224 E13.26429
G1 X109.750 Y67.159 E13.27355
G1 X110.126 Y67.147 E13.28499
G1 X110.408 Y67.187 E13.29365 F900.000
G1 X112.934 Y67.862 E13.37320
G1 X115.332 Y68.768 E13.45119
G1 X117.668 Y69.928 E13.53053
G1 X119.875 Y71.318 E13.60988
G1 X121.932 Y72.923 E13.68923
G1 X123.847 Y74.758 E13.76993
G1 X125.536 Y76.745 E13.84927
G1 X126.994 Y78.854 E13.92727
G1 X128.256 Y81.137 E14.00661
G1 X129.173 Y83.282 E14.07758
G1 X129.297 Y83.577 E14.08731
G1 X130.071 Y86.067 E14.16666
G1 X130.592 Y88.623 E14.24600
G1 X130.850 Y91.174 E14.32400
G1 X130.850 Y93.826 E14.40470
G1 X130.585 Y96.421 E14.48404
G1 X130.071 Y98.933 E14.56204
G1 X129.297 Y101.423 E14.64138
G1 X128.275 Y103.823 E14.72073
G1 X126.994 Y106.146 E14.80143
G1 X125.536 Y108.255 E14.87942
G1 X123.847 Y110.242 E14.95877
G1 X121.965 Y112.048 E15.03811
G1 X119.912 Y113.656 E15.11746
G1 X117.668 Y115.072 E15.19816
G1 X115.373 Y116.214 E15.27615
G1 X112.934 Y117.138 E15.35550
G1 X110.408 Y117.813 E15.43505
G1 X110.126 Y117.853 E15.44370
G1 X109.750 Y117.841 E15.45514
G1 X109.453 Y117.776 E15.46441
G1 X109.234 Y117.695 E15.47151
G1 X109.001 Y117.568 E15.47956
G1 X108.726 Y117.361 E15.49003
G1 X108.519 Y117.138 E15.49929
G1 X108.351 Y116.884 E15.50857
G1 X108.226 Y116.607 E15.51783
G1 X108.147 Y116.312 E15.52710
G1 X108.116 Y115.991 E15.53691
G1 X108.116 Y113.296 E15.61889
G1 X108.067 Y112.725 E15.63634
G1 X107.929 Y112.200 E15.65284
G1 X107.703 Y111.708 E15.66934
G1 X107.374 Y111.238 E15.68678
G1 X107.012 Y110.876 E15.70235
G1 X106.569 Y110.563 E15.71885
G1 X106.050 Y110.321 E15.73628
G1 X105.556 Y110.188 E15.75185
G1 X105.015 Y110.138 E15.76835
G1 X104.444 Y110.188 E15.78579
G1 X103.921 Y110.331 E15.80229
G1 X103.431 Y110.563 E15.81879
G1 X103.012 Y110.856 E15.83435
G1 X102.626 Y111.238 E15.85086
G1 X102.297 Y111.708 E15.86829
G1 X102.071 Y112.200 E15.88479
G1 X101.933 Y112.725 E15.90130
G1 X101.884 Y113.296 E15.91874
G1 X101.884 Y115.991 E16.00073
G1 X101.853 Y116.312 E16.01054
G1 X101.774 Y116.607 E16.01981
G1 X101.649 Y116.884 E16.02907
G1 X101.481 Y117.138 E16.03834
G1 X101.274 Y117.362 E16.04761
G1 X101.033 Y117.549 E16.05688
G1 X100.831 Y117.664 E16.06397
G1 X100.547 Y117.776 E16.07324
