; generated by Slic3r 1.2.4 on 2015-01-08 at 13:33:08

; external perimeters extrusion width = 0.30mm
; perimeters extrusion width = 0.40mm
; infill extrusion width = 0.40mm
; solid infill extrusion width = 0.40mm
; top infill extrusion width = 0.40mm

M107
M190 S45 ; set bed temperature
M104 S220 ; set temperature
G28 ; home all axes
G92 E0;
G1 E1 F1200 ;
G92 E0 ;
M109 S220 ; wait for temperature to be reached
G21 ; set units to millimeters
G90 ; use absolute coordinates
M82 ; use absolute distances for extrusion
G92 E0
G1 E-0.70000 F600.00000
G92 E0
G1 Z0.200 F15300.000
G1 X82.469 Y79.266 F15300.000
G1 E0.71000 F600.00000
G1 X83.171 Y78.562 E0.74026 F900.000
G1 X83.959 Y77.886 E0.77184
G1 X84.763 Y77.300 E0.80211
G1 X85.647 Y76.756 E0.83368
G1 X86.532 Y76.302 E0.86394
G1 X87.490 Y75.903 E0.89552
G1 X87.957 Y75.729 E0.91066
G1 X114.197 Y67.131 E1.75071
G1 X115.400 Y66.826 E1.78845
G1 X115.749 Y66.759 E1.79927
G1 X116.435 Y66.665 E1.82033
G1 X117.473 Y66.581 E1.85201
G1 X118.592 Y66.588 E1.88605
G1 X119.509 Y66.659 E1.91405 F900.000
G1 X120.496 Y66.813 E1.94442
G1 X121.509 Y67.054 E1.97610
G1 X122.459 Y67.361 E2.00647
G1 X123.422 Y67.758 E2.03816
G1 X124.312 Y68.210 E2.06853
G1 X125.201 Y68.753 E2.10021
G1 X126.009 Y69.338 E2.13058
G1 X126.802 Y70.014 E2.16226
G1 X127.508 Y70.719 E2.19263
G1 X128.185 Y71.510 E2.22431
G1 X128.773 Y72.317 E2.25469
G1 X129.318 Y73.205 E2.28637
G1 X129.772 Y74.094 E2.31674
G1 X130.171 Y75.056 E2.34842
G1 X130.480 Y76.005 E2.37879
G1 X130.723 Y77.018 E2.41047
G1 X130.879 Y78.004 E2.44084
G1 X130.961 Y79.042 E2.47253
G1 X130.981 Y79.541 E2.48772
G1 X130.981 Y105.459 E3.27618
G1 X130.961 Y105.958 E3.29138
G1 X130.879 Y106.996 E3.32306
G1 X130.723 Y107.982 E3.35343
G1 X130.480 Y108.995 E3.38511
G1 X130.171 Y109.944 E3.41548
G1 X129.772 Y110.906 E3.44716
G1 X129.318 Y111.795 E3.47753
G1 X128.773 Y112.683 E3.50922
G1 X128.185 Y113.490 E3.53959
G1 X127.508 Y114.281 E3.57127
G1 X126.802 Y114.986 E3.60164
G1 X126.009 Y115.662 E3.63332
G1 X125.201 Y116.247 E3.66369
G1 X124.312 Y116.790 E3.69537
G1 X123.422 Y117.242 E3.72575
G1 X122.459 Y117.639 E3.75743
G1 X121.509 Y117.946 E3.78780
G1 X120.496 Y118.187 E3.81948
G1 X119.509 Y118.341 E3.84985
G1 X118.471 Y118.421 E3.88153
G1 X117.473 Y118.419 E3.91190
G1 X116.435 Y118.335 E3.94359
G1 X115.749 Y118.241 E3.96465
G1 X115.400 Y118.174 E3.97546
G1 X114.918 Y118.066 E3.99046
G1 X114.266 Y117.887 E4.01104
G1 X87.957 Y109.271 E4.85326
G1 X87.490 Y109.097 E4.86840
G1 X86.532 Y108.698 E4.89998
G1 X85.647 Y108.244 E4.93024
G1 X84.763 Y107.700 E4.96181
G1 X83.959 Y107.114 E4.99208
G1 X83.171 Y106.438 E5.02365
G1 X82.469 Y105.734 E5.05392
G1 X81.796 Y104.943 E5.08549
G1 X81.212 Y104.138 E5.11576
G1 X80.671 Y103.252 E5.14733
G1 X80.220 Y102.365 E5.17760
G1 X79.824 Y101.406 E5.20917
G1 X79.517 Y100.460 E5.23944
G1 X79.275 Y99.451 E5.27101
G1 X79.120 Y98.468 E5.30128
G1 X79.039 Y97.433 E5.33285
G1 X79.019 Y96.936 E5.34799
G1 X79.019 Y88.064 E5.61788
G1 X79.039 Y87.567 E5.63303
G1 X79.120 Y86.532 E5.66460
G1 X79.275 Y85.549 E5.69487
G1 X79.517 Y84.540 E5.72644
G1 X79.824 Y83.594 E5.75671
G1 X80.220 Y82.635 E5.78828
G1 X80.671 Y81.748 E5.81855
G1 X81.212 Y80.862 E5.85012
G1 X81.796 Y80.057 E5.88039
G1 X82.440 Y79.301 E5.91059
G1 E5.21059 F600.00000
G92 E0
G1 X86.066 Y82.389 F15300.000
G1 E0.71000 F600.00000
G1 X86.224 Y82.219 E0.71705 F900.000
G1 X87.207 Y81.389 E0.75620
G1 X88.308 Y80.722 E0.79535
G1 X89.411 Y80.265 E0.83167
G1 X114.020 Y72.198 E1.61952
G1 X114.040 Y72.166 E1.62067
G1 X115.735 Y71.644 E1.67464
G1 X116.276 Y71.508 E1.69160
G1 X116.776 Y71.416 E1.70707
G1 X117.920 Y71.324 E1.74197
G1 X118.228 Y71.337 E1.75136
G1 X119.331 Y71.432 E1.78506 F900.000
G1 X120.466 Y71.702 E1.82055
G1 X121.664 Y72.185 E1.85983
G1 X122.771 Y72.850 E1.89912
G1 X123.849 Y73.768 E1.94220
G1 X124.681 Y74.756 E1.98148
G1 X125.348 Y75.861 E2.02077
G1 X125.834 Y77.058 E2.06005
G1 X126.107 Y78.192 E2.09554
G1 X126.215 Y79.448 E2.13387
G1 X126.218 Y105.490 E2.92613
G1 X126.107 Y106.808 E2.96637
G1 X125.834 Y107.942 E3.00186
G1 X125.348 Y109.139 E3.04114
G1 X124.607 Y110.345 E3.08422
G1 X123.760 Y111.320 E3.12351
G1 X122.771 Y112.150 E3.16279
G1 X121.775 Y112.758 E3.19828
G1 X120.585 Y113.260 E3.23757
G1 X119.332 Y113.568 E3.27685
G1 X117.920 Y113.676 E3.31993
G1 X116.776 Y113.584 E3.35483
G1 X116.281 Y113.494 E3.37013
G1 X115.567 Y113.306 E3.39259
G1 X114.092 Y112.874 E3.43937
G1 X114.053 Y112.813 E3.44156
G1 X89.411 Y104.735 E4.23048
G1 X88.197 Y104.221 E4.27057
G1 X87.106 Y103.538 E4.30972
G1 X86.224 Y102.781 E4.34509
G1 X85.382 Y101.808 E4.38424
G1 X84.646 Y100.604 E4.42717
G1 X84.202 Y99.529 E4.46254
G1 X83.893 Y98.280 E4.50168
G1 X83.782 Y96.967 E4.54178
G1 X83.782 Y88.033 E4.81357
G1 X83.873 Y86.843 E4.84988
G1 X84.163 Y85.589 E4.88903
G1 X84.646 Y84.396 E4.92818
G1 X85.309 Y83.293 E4.96733
G1 X86.037 Y82.423 E5.00184
G1 X86.306 Y82.652 F15300.000
G1 X86.464 Y82.478 E5.00900 F900.000
G1 X87.404 Y81.682 E5.04647
G1 X88.457 Y81.043 E5.08394
G1 X89.527 Y80.599 E5.11919
G1 X114.412 Y72.441 E5.91587
G1 X114.428 Y72.416 E5.91679
G1 X115.833 Y71.983 E5.96150
G1 X116.347 Y71.854 E5.97765
G1 X116.814 Y71.768 E5.99209
G1 X118.032 Y71.677 E6.02923
G1 X119.167 Y71.764 E6.06387 F900.000
G1 X119.428 Y71.818 E6.07199
G1 X120.464 Y72.073 E6.10442
G1 X121.516 Y72.507 E6.13906
G1 X122.575 Y73.144 E6.17666
G1 X123.520 Y73.940 E6.21425
G1 X124.387 Y74.953 E6.25480
G1 X125.027 Y76.010 E6.29240
G1 X125.494 Y77.154 E6.32999
G1 X125.760 Y78.261 E6.36463
G1 X125.863 Y79.468 E6.40149
G1 X125.864 Y105.483 E7.19290
G1 X125.760 Y106.739 E7.23124
G1 X125.494 Y107.846 E7.26588
G1 X125.027 Y108.990 E7.30348
G1 X124.330 Y110.126 E7.34402
G1 X123.520 Y111.060 E7.38162
G1 X122.575 Y111.856 E7.41921
G1 X121.603 Y112.449 E7.45386
G1 X120.464 Y112.927 E7.49145
G1 X119.263 Y113.221 E7.52905
G1 X117.934 Y113.323 E7.56959
G1 X116.814 Y113.232 E7.60378
G1 X116.352 Y113.147 E7.61808
G1 X116.061 Y113.078 E7.62718
G1 X114.470 Y112.616 E7.67759
G1 X114.439 Y112.567 E7.67934
G1 X89.527 Y104.401 E8.47687
G1 X88.371 Y103.913 E8.51507
G1 X87.326 Y103.261 E8.55254
G1 X86.464 Y102.522 E8.58706
G1 X85.660 Y101.589 E8.62452
G1 X84.967 Y100.456 E8.66493
G1 X84.504 Y99.315 E8.70240
G1 X84.240 Y98.211 E8.73692
G1 X84.136 Y96.960 E8.77512
G1 X84.136 Y88.040 E9.04649
G1 X84.224 Y86.884 E9.08175
G1 X84.504 Y85.685 E9.11921
G1 X84.967 Y84.544 E9.15668
G1 X85.603 Y83.489 E9.19414
G1 X86.277 Y82.686 E9.22603
G1 X86.546 Y82.915 F15300.000
G1 X86.705 Y82.737 E9.23329 F900.000
G1 X87.601 Y81.976 E9.26907
G1 X88.606 Y81.364 E9.30485
G1 X89.644 Y80.932 E9.33906
G1 X114.804 Y72.685 E10.14456
G1 X114.816 Y72.665 E10.14525
G1 X115.948 Y72.318 E10.18128
G1 X116.805 Y72.126 E10.20797
G1 X117.949 Y72.030 E10.24291
G1 X118.174 Y72.042 E10.24976
G1 X119.195 Y72.126 E10.28092 F900.000
G1 X120.276 Y72.383 E10.31472
G1 X121.369 Y72.828 E10.35062
G1 X122.379 Y73.439 E10.38653
G1 X123.330 Y74.249 E10.42454
G1 X124.093 Y75.149 E10.46045
G1 X124.706 Y76.158 E10.49636
G1 X125.153 Y77.250 E10.53226
G1 X125.413 Y78.330 E10.56606
G1 X125.510 Y79.489 E10.60143
G1 X125.511 Y105.476 E11.39200
G1 X125.424 Y106.601 E11.42633
G1 X125.153 Y107.750 E11.46223
G1 X124.706 Y108.842 E11.49814
G1 X124.052 Y109.907 E11.53615
G1 X123.281 Y110.800 E11.57206
G1 X122.379 Y111.561 E11.60796
G1 X121.431 Y112.141 E11.64176
G1 X120.342 Y112.595 E11.67766
G1 X119.195 Y112.874 E11.71357
G1 X117.949 Y112.970 E11.75158
G1 X116.852 Y112.881 E11.78505
G1 X116.422 Y112.801 E11.79836
G1 X114.848 Y112.358 E11.84812
G1 X114.824 Y112.322 E11.84943
G1 X89.644 Y104.068 E12.65558
G1 X88.544 Y103.605 E12.69188
G1 X87.601 Y103.024 E12.72557
G1 X86.705 Y102.263 E12.76135
G1 X85.897 Y101.315 E12.79923
G1 X85.289 Y100.308 E12.83501
G1 X84.844 Y99.219 E12.87079
G1 X84.587 Y98.143 E12.90447
G1 X84.489 Y96.953 E12.94078
G1 X84.489 Y88.047 E13.21172
G1 X84.576 Y86.926 E13.24593
G1 X84.844 Y85.781 E13.28171
G1 X85.289 Y84.692 E13.31749
G1 X85.897 Y83.685 E13.35328
G1 X86.517 Y82.950 E13.38253
G1 E12.68253 F600.00000
G92 E0
G1 X114.193 Y106.964 F15300.000
G1 E0.71000 F600.00000
G1 X114.487 Y106.673 E0.72258 F900.000
G1 X114.801 Y106.454 E0.73422
G1 X115.174 Y106.277 E0.74680
G1 X115.573 Y106.167 E0.75937
G1 X116.015 Y106.128 E0.77289
G1 X116.427 Y106.167 E0.78546 F900.000
G1 X116.826 Y106.277 E0.79804
G1 X117.199 Y106.454 E0.81062
G1 X117.536 Y106.693 E0.82319
G1 X117.827 Y106.987 E0.83577
G1 X118.062 Y107.328 E0.84835
G1 X118.234 Y107.703 E0.86093
G1 X118.333 Y108.073 E0.87257
G1 X118.372 Y108.515 E0.88608
G1 X118.333 Y108.927 E0.89866
G1 X118.223 Y109.326 E0.91123
G1 X118.046 Y109.699 E0.92381
G1 X117.807 Y110.036 E0.93639
G1 X117.513 Y110.327 E0.94896
G1 X117.172 Y110.562 E0.96154
G1 X116.797 Y110.734 E0.97412
G1 X116.377 Y110.845 E0.98732
G1 X115.331 Y110.902 E1.01920
G1 X115.211 Y110.863 E1.02303
G1 X114.308 Y110.162 E1.05781
G1 X114.201 Y110.050 E1.06252
G1 X113.954 Y109.699 E1.07558
G1 X113.777 Y109.326 E1.08816
G1 X113.667 Y108.927 E1.10073
G1 X113.628 Y108.515 E1.11331
G1 X113.662 Y108.103 E1.12589
G1 X113.766 Y107.703 E1.13846
G1 X113.938 Y107.328 E1.15104
G1 X114.165 Y106.999 E1.16319
G1 X114.445 Y107.215 F15300.000
G1 X114.715 Y106.945 E1.17482 F900.000
G1 X114.978 Y106.761 E1.18458
G1 X115.296 Y106.610 E1.19528
G1 X115.665 Y106.511 E1.20691
G1 X116.015 Y106.483 E1.21760
G1 X116.335 Y106.511 E1.22736
G1 X116.675 Y106.599 E1.23806 F900.000
G1 X116.995 Y106.746 E1.24875
G1 X117.308 Y106.965 E1.26038
G1 X117.555 Y107.215 E1.27108
G1 X117.754 Y107.505 E1.28178
G1 X117.901 Y107.825 E1.29247
G1 X117.989 Y108.165 E1.30317
G1 X118.017 Y108.515 E1.31386
G1 X117.984 Y108.865 E1.32456
G1 X117.890 Y109.204 E1.33526
G1 X117.739 Y109.522 E1.34595
G1 X117.535 Y109.808 E1.35665
G1 X117.285 Y110.055 E1.36734
G1 X117.022 Y110.239 E1.37710
G1 X116.704 Y110.390 E1.38780
G1 X116.250 Y110.506 E1.40205
G1 X115.445 Y110.543 E1.42659
G1 X115.325 Y110.505 E1.43041
G1 X114.548 Y109.902 E1.46033
G1 X114.463 Y109.811 E1.46412
G1 X114.261 Y109.522 E1.47484
G1 X114.110 Y109.204 E1.48554
G1 X114.016 Y108.865 E1.49623
G1 X113.983 Y108.515 E1.50693
G1 X114.011 Y108.165 E1.51762
G1 X114.099 Y107.825 E1.52832
G1 X114.246 Y107.505 E1.53901
G1 X114.419 Y107.252 E1.54834
G1 X114.709 Y107.455 F15300.000
G1 X114.920 Y107.237 E1.55758 F900.000
G1 X115.182 Y107.053 E1.56733
G1 X115.446 Y106.933 E1.57614
G1 X115.696 Y106.866 E1.58402
G1 X116.015 Y106.838 E1.59377
G1 X116.304 Y106.866 E1.60259 F900.000
G1 X116.583 Y106.943 E1.61140
G1 X116.844 Y107.068 E1.62021
G1 X117.080 Y107.237 E1.62903
G1 X117.283 Y107.443 E1.63784
G1 X117.432 Y107.656 E1.64572
G1 X117.557 Y107.917 E1.65454
G1 X117.634 Y108.196 E1.66335
G1 X117.662 Y108.515 E1.67310
G1 X117.634 Y108.804 E1.68192
G1 X117.557 Y109.083 E1.69073
G1 X117.432 Y109.344 E1.69954
G1 X117.263 Y109.580 E1.70836
G1 X117.057 Y109.783 E1.71717
G1 X116.818 Y109.947 E1.72599
G1 X116.554 Y110.067 E1.73480
G1 X116.249 Y110.149 E1.74441
G1 X115.559 Y110.184 E1.76543
G1 X115.439 Y110.146 E1.76925
G1 X114.745 Y109.598 E1.79615
G1 X114.568 Y109.344 E1.80555
G1 X114.443 Y109.083 E1.81436
G1 X114.366 Y108.804 E1.82318
G1 X114.338 Y108.515 E1.83199
G1 X114.360 Y108.227 E1.84081
G1 X114.433 Y107.946 E1.84962
G1 X114.553 Y107.682 E1.85844
G1 X114.683 Y107.492 E1.86546
G1 E1.16546 F600.00000
G92 E0
G1 X115.985 Y78.872 F15300.000
G1 E0.71000 F600.00000
G1 X115.573 Y78.833 E0.72258 F900.000
G1 X115.174 Y78.723 E0.73515
G1 X114.801 Y78.546 E0.74773
G1 X114.464 Y78.307 E0.76031
G1 X114.173 Y78.013 E0.77289
G1 X113.938 Y77.672 E0.78546
G1 X113.766 Y77.297 E0.79804
G1 X113.662 Y76.897 E0.81062
G1 X113.628 Y76.485 E0.82319
G1 X113.667 Y76.073 E0.83577
G1 X113.777 Y75.674 E0.84835
G1 X113.954 Y75.301 E0.86093
G1 X114.183 Y74.973 E0.87311
G1 X114.340 Y74.806 E0.88006
G1 X115.218 Y74.152 E0.91338
G1 X115.329 Y74.116 E0.91692
G1 X116.089 Y74.126 E0.94004 F900.000
G1 X116.387 Y74.158 E0.94916
G1 X116.797 Y74.266 E0.96204
G1 X117.199 Y74.454 E0.97555
G1 X117.536 Y74.693 E0.98813
G1 X117.807 Y74.964 E0.99977
G1 X118.046 Y75.301 E1.01235
G1 X118.234 Y75.703 E1.02586
G1 X118.338 Y76.103 E1.03844
G1 X118.372 Y76.515 E1.05102
G1 X118.338 Y76.897 E1.06266
G1 X118.234 Y77.297 E1.07523
G1 X118.062 Y77.672 E1.08781
G1 X117.827 Y78.013 E1.10039
G1 X117.513 Y78.327 E1.11390
G1 X117.172 Y78.562 E1.12648
G1 X116.797 Y78.734 E1.13906
G1 X116.427 Y78.833 E1.15070
G1 X116.030 Y78.870 E1.16284
G1 X116.015 Y78.517 F15300.000
G1 X115.665 Y78.489 E1.17354 F900.000
G1 X115.325 Y78.401 E1.18424
G1 X114.978 Y78.239 E1.19587
G1 X114.692 Y78.035 E1.20656
G1 X114.445 Y77.785 E1.21726
G1 X114.261 Y77.522 E1.22702
G1 X114.110 Y77.204 E1.23771
G1 X114.016 Y76.865 E1.24841
G1 X113.983 Y76.515 E1.25911
G1 X114.011 Y76.165 E1.26980
G1 X114.110 Y75.796 E1.28143
G1 X114.261 Y75.478 E1.29213
G1 X114.459 Y75.196 E1.30261
G1 X114.554 Y75.091 E1.30691
G1 X115.333 Y74.507 E1.33654
G1 X115.444 Y74.471 E1.34008
G1 X115.984 Y74.478 E1.35651
G1 X116.322 Y74.507 E1.36682 F900.000
G1 X116.704 Y74.610 E1.37888
G1 X117.022 Y74.761 E1.38958
G1 X117.308 Y74.965 E1.40027
G1 X117.555 Y75.215 E1.41097
G1 X117.754 Y75.505 E1.42167
G1 X117.901 Y75.825 E1.43236
G1 X117.984 Y76.135 E1.44212
G1 X118.017 Y76.485 E1.45282
G1 X117.989 Y76.835 E1.46351
G1 X117.901 Y77.175 E1.47421
G1 X117.739 Y77.522 E1.48584
G1 X117.535 Y77.808 E1.49654
G1 X117.285 Y78.055 E1.50723
G1 X116.995 Y78.254 E1.51793
G1 X116.675 Y78.401 E1.52862
G1 X116.365 Y78.484 E1.53838
G1 X116.060 Y78.513 E1.54771
G1 X116.029 Y78.161 F15300.000
G1 X115.727 Y78.140 E1.55695 F900.000
G1 X115.446 Y78.067 E1.56576
G1 X115.182 Y77.947 E1.57458
G1 X114.943 Y77.783 E1.58339
G1 X114.737 Y77.580 E1.59221
G1 X114.568 Y77.344 E1.60102
G1 X114.443 Y77.083 E1.60983
G1 X114.360 Y76.773 E1.61958
G1 X114.338 Y76.485 E1.62840
G1 X114.366 Y76.196 E1.63721
G1 X114.443 Y75.917 E1.64603
G1 X114.568 Y75.656 E1.65484
G1 X114.814 Y75.335 E1.66713
G1 X115.448 Y74.862 E1.69120
G1 X115.559 Y74.826 E1.69473
G1 X116.046 Y74.833 E1.70955 F900.000
G1 X116.282 Y74.860 E1.71680
G1 X116.583 Y74.943 E1.72629
G1 X116.844 Y75.068 E1.73510
G1 X117.057 Y75.217 E1.74298
G1 X117.263 Y75.420 E1.75180
G1 X117.432 Y75.656 E1.76061
G1 X117.567 Y75.946 E1.77036
G1 X117.640 Y76.227 E1.77917
G1 X117.662 Y76.515 E1.78799
G1 X117.640 Y76.773 E1.79587
G1 X117.567 Y77.054 E1.80468
G1 X117.447 Y77.318 E1.81350
G1 X117.283 Y77.557 E1.82231
G1 X117.057 Y77.783 E1.83206
G1 X116.818 Y77.947 E1.84088
G1 X116.554 Y78.067 E1.84969
G1 X116.304 Y78.134 E1.85757
G1 X116.074 Y78.157 E1.86459
G1 E1.16459 F600.00000
G92 E0
G1 X114.867 Y73.973 F15300.000
G1 E0.71000 F600.00000
G1 X114.080 Y74.563 E0.73992 F900.000
G1 X113.908 Y74.750 E0.74764
G1 X113.647 Y75.123 E0.76152
G1 X113.433 Y75.582 E0.77692
G1 X113.312 Y76.042 E0.79138
G1 X113.274 Y76.515 E0.80583
G1 X113.318 Y76.989 E0.82029
G1 X113.443 Y77.447 E0.83475
G1 X113.647 Y77.877 E0.84921
G1 X113.901 Y78.241 E0.86273
G1 X114.259 Y78.599 E0.87813
G1 X114.650 Y78.869 E0.89258
G1 X115.053 Y79.057 E0.90611
G1 X115.511 Y79.182 E0.92057
G1 X115.985 Y79.226 E0.93502
G1 X116.458 Y79.188 E0.94948
G1 X116.947 Y79.057 E0.96488
G1 X117.377 Y78.853 E0.97933
G1 X117.764 Y78.579 E0.99379
G1 X118.099 Y78.241 E1.00825
G1 X118.369 Y77.850 E1.02271
G1 X118.557 Y77.447 E1.03623
G1 X118.688 Y76.958 E1.05163
G1 X118.726 Y76.485 E1.06608
G1 X118.688 Y76.042 E1.07961
G1 X118.567 Y75.582 E1.09407
G1 X118.353 Y75.123 E1.10946
G1 X118.079 Y74.736 E1.12392
G1 X117.764 Y74.421 E1.13744
G1 X117.350 Y74.131 E1.15283
G1 X116.918 Y73.933 E1.16729
G1 X116.479 Y73.815 E1.18112
G1 X116.111 Y73.773 E1.19239
G1 X115.485 Y73.765 E1.21144
G1 X115.355 Y72.868 E1.23899
G1 X116.039 Y72.660 E1.26073
G1 X116.862 Y72.475 E1.28640
G1 X117.964 Y72.384 E1.32003
G1 X119.085 Y72.466 E1.35425
G1 X120.180 Y72.724 E1.38846
G1 X121.221 Y73.149 E1.42268
G1 X122.216 Y73.757 E1.45816
G1 X123.041 Y74.460 E1.49111
G1 X123.163 Y74.597 E1.49669
G1 X123.799 Y75.346 E1.52659
G1 X124.366 Y76.269 E1.55954
G1 X124.800 Y77.307 E1.59376
G1 X125.066 Y78.399 E1.62797
G1 X125.158 Y79.531 E1.66251
G1 X125.157 Y105.490 E2.45223
G1 X125.066 Y106.601 E2.48613
